%
(1001)
(T1  D=1. CR=0. - ZMIN=-2.4 - flat end mill)
(T2  D=3.175 CR=0. TAPER=7.5deg - ZMIN=-0.3 - chamfer mill)
N10 G90
N11 G71

(Contour1)
(CHANGE TOOL)
N12 T2 M06 (CHAMFER MILL D=3.175 0.2MM 15DEG ENGRAVER SOROTEC)
(sorotec 0mm2 15deg engraver)
N13 S20000 M03
N14 G54
N15 G00 X81.791 Y-52.079
N16 G00 Z-7.
N17 G00 Z-1.
N18 G01 Z-0.01 F100
N19 G01 X0.426 Z0.199 F200
N20 G01 X0.416
N21 G01 X0.406 Y-52.078
N22 G01 X0.367 Y-52.071 Z0.2
N23 G01 X0.357 Y-52.068
N24 G01 X0.347 Y-52.065
N25 G01 X0.337 Y-52.06
N26 G01 X0.332 Y-52.058
N27 G01 X0.327 Y-52.055
N28 G01 X0.326 Y-52.054
N29 G01 X0.307 Y-52.041
N30 G01 X0.297 Y-52.034
N31 G01 X0.292 Y-52.031
N32 G01 X0.287 Y-52.027
N33 G01 X0.281 Y-52.021
N34 G01 X0.274 Y-52.015
N35 G01 X0.27 Y-52.01
N36 G01 X0.266 Y-52.005
N37 G01 X0.26 Y-51.995
N38 G01 X0.247 Y-51.975
N39 G01 X0.241 Y-51.965 F100
N40 G01 X0.236 Y-51.955
N41 G01 X0.232 Y-51.945
N42 G01 X0.229 Y-51.935
N43 G01 X0.225 Y-51.915
N44 G01 X0.222 Y-51.895
N45 G01 X0.221 Y-51.885
N46 G01 Y-51.875
N47 G01 Y-0.425
N48 G01 Y-0.415
N49 G01 X0.222 Y-0.405
N50 G01 X0.23 Y-0.365
N51 G01 X0.232 Y-0.355
N52 G01 X0.236 Y-0.345
N53 G01 X0.241 Y-0.335
N54 G01 X0.243 Y-0.33
N55 G01 X0.246 Y-0.325
N56 G01 X0.247 Y-0.324
N57 G01 X0.26 Y-0.305
N58 G01 X0.267 Y-0.295
N59 G01 X0.27 Y-0.29
N60 G01 X0.274 Y-0.285
N61 G01 X0.28 Y-0.279
N62 G01 X0.287 Y-0.273
N63 G01 X0.292 Y-0.269
N64 G01 X0.297 Y-0.265
N65 G01 X0.307 Y-0.258
N66 G01 X0.327 Y-0.246
N67 G01 X0.332 Y-0.243
N68 G01 X0.337 Y-0.24
N69 G01 X0.347 Y-0.235
N70 G01 X0.357 Y-0.232
N71 G01 X0.367 Y-0.229
N72 G01 X0.387 Y-0.225
N73 G01 X0.406 Y-0.222
N74 G01 X0.416 Y-0.221
N75 G01 X0.426
N76 G01 X142.574
N77 G01 X142.584
N78 G01 X142.594 Y-0.222
N79 G01 X142.633 Y-0.229
N80 G01 X142.643 Y-0.232
N81 G01 X142.653 Y-0.235
N82 G01 X142.663 Y-0.24
N83 G01 X142.668 Y-0.242
N84 G01 X142.673 Y-0.245
N85 G01 X142.674 Y-0.246
N86 G01 X142.693 Y-0.259
N87 G01 X142.703 Y-0.266
N88 G01 X142.708 Y-0.269
N89 G01 X142.713 Y-0.273
N90 G01 X142.719 Y-0.279
N91 G01 X142.726 Y-0.285
N92 G01 X142.73 Y-0.29
N93 G01 X142.734 Y-0.295
N94 G01 X142.74 Y-0.305
N95 G01 X142.753 Y-0.325
N96 G01 X142.759 Y-0.335
N97 G01 X142.764 Y-0.345
N98 G01 X142.768 Y-0.355
N99 G01 X142.771 Y-0.365
N100 G01 X142.775 Y-0.385
N101 G01 X142.778 Y-0.405
N102 G01 X142.779 Y-0.415
N103 G01 Y-0.425
N104 G01 Y-51.875
N105 G01 Y-51.885
N106 G01 X142.778 Y-51.895
N107 G01 X142.77 Y-51.935
N108 G01 X142.768 Y-51.945
N109 G01 X142.764 Y-51.955
N110 G01 X142.759 Y-51.965
N111 G01 X142.757 Y-51.97
N112 G01 X142.754 Y-51.975
N113 G01 X142.753 Y-51.976
N114 G01 X142.74 Y-51.995
N115 G01 X142.733 Y-52.005
N116 G01 X142.73 Y-52.01
N117 G01 X142.726 Y-52.015
N118 G01 X142.72 Y-52.021
N119 G01 X142.713 Y-52.027
N120 G01 X142.708 Y-52.031
N121 G01 X142.703 Y-52.035
N122 G01 X142.693 Y-52.042
N123 G01 X142.673 Y-52.054
N124 G01 X142.668 Y-52.057
N125 G01 X142.663 Y-52.06
N126 G01 X142.653 Y-52.065
N127 G01 X142.643 Y-52.068
N128 G01 X142.633 Y-52.071
N129 G01 X142.613 Y-52.075
N130 G01 X142.594 Y-52.078
N131 G01 X142.584 Y-52.079
N132 G01 X142.574
N133 G01 X0.426
N134 G01 X0.416
N135 G01 X0.406 Y-52.078
N136 G01 X0.367 Y-52.071
N137 G01 X0.357 Y-52.068
N138 G01 X0.347 Y-52.065
N139 G01 X0.337 Y-52.06
N140 G01 X0.332 Y-52.058
N141 G01 X0.327 Y-52.055
N142 G01 X0.326 Y-52.054
N143 G01 X0.307 Y-52.041
N144 G01 X0.297 Y-52.034
N145 G01 X0.292 Y-52.031
N146 G01 X0.287 Y-52.027
N147 G01 X0.281 Y-52.021
N148 G01 X0.274 Y-52.015
N149 G01 X0.27 Y-52.01
N150 G01 X0.266 Y-52.005
N151 G01 X0.26 Y-51.995
N152 G01 X0.247 Y-51.975
N153 G00 Z-2.
N154 G00 X5.282 Y-48.441
N155 G00 Z-0.985
N156 G01 Z0.09 F100
N157 G01 X5.296 Y-48.262 Z0.096 F200
N158 G01 Y-48.259
N159 G01 X5.278 Y-48.028 Z0.104
N160 G01 Y-48.025 Z0.105
N161 G01 X5.224 Y-47.801 Z0.113
N162 G01 X5.223 Y-47.799
N163 G01 X5.135 Y-47.585 Z0.121
N164 G01 X5.133 Y-47.583
N165 G01 X5.013 Y-47.386 Z0.129
N166 G01 X5.011 Y-47.384
N167 G01 X4.862 Y-47.209 Z0.137
N168 G01 X4.86 Y-47.208
N169 G01 X4.686 Y-47.059 Z0.145
N170 G01 X4.683 Y-47.057
N171 G01 X4.487 Y-46.937 Z0.153
N172 G01 X4.484 Y-46.935
N173 G01 X4.27 Y-46.847 Z0.161
N174 G01 X4.268 Y-46.846 Z0.162
N175 G01 X4.044 Y-46.792 Z0.17
N176 G01 X4.041
N177 G01 X3.812 Y-46.774 Z0.178
N178 G01 X3.81
N179 G01 X3.578 Y-46.792 Z0.186
N180 G01 X3.576
N181 G01 X3.352 Y-46.846 Z0.194
N182 G01 X3.35 Y-46.847
N183 G01 X3.136 Y-46.935 Z0.202
N184 G01 X3.133 Y-46.937
N185 G01 X2.937 Y-47.057 Z0.21
N186 G01 X2.934 Y-47.059
N187 G01 X2.76 Y-47.208 Z0.218
N188 G01 X2.758 Y-47.21 Z0.219
N189 G01 X2.609 Y-47.384 Z0.227
N190 G01 X2.607 Y-47.386
N191 G01 X2.487 Y-47.583 Z0.235
N192 G01 X2.485 Y-47.585
N193 G01 X2.397 Y-47.8 Z0.243
N194 G01 X2.396 Y-47.802
N195 G01 X2.342 Y-48.025 Z0.251
N196 G01 Y-48.028
N197 G01 X2.324 Y-48.259 Z0.259
N198 G01 Y-48.262
N199 G01 X2.342 Y-48.491 Z0.267
N200 G01 Y-48.493
N201 G01 X2.396 Y-48.718 Z0.276
N202 G01 X2.397 Y-48.72
N203 G01 X2.485 Y-48.934 Z0.284
N204 G01 X2.486 Y-48.936
N205 G01 X2.606 Y-49.132 Z0.292
N206 G01 X2.608 Y-49.134
N207 G01 X2.758 Y-49.31 Z0.3
N208 G01 X2.759 Y-49.311
N209 G01 X2.935 Y-49.462 F100
N210 G01 X2.937 Y-49.463
N211 G01 X3.135 Y-49.584
N212 G01 X3.137 Y-49.585
N213 G01 X3.35 Y-49.673
N214 G01 X3.352 Y-49.674
N215 G01 X3.576 Y-49.728
N216 G01 X3.578
N217 G01 X3.81 Y-49.746
N218 G01 X4.041 Y-49.728
N219 G01 X4.044
N220 G01 X4.268 Y-49.674
N221 G01 X4.27
N222 G01 X4.483 Y-49.585
N223 G01 X4.485 Y-49.584
N224 G01 X4.683 Y-49.463
N225 G01 X4.685 Y-49.462
N226 G01 X4.861 Y-49.311
N227 G01 X4.862 Y-49.31
N228 G01 X5.012 Y-49.135
N229 G01 X5.013 Y-49.132
N230 G01 X5.133 Y-48.937
N231 G01 X5.135 Y-48.934
N232 G01 X5.223 Y-48.721
N233 G01 X5.224 Y-48.719
N234 G01 X5.278 Y-48.493
N235 G01 Y-48.491
N236 G01 X5.296 Y-48.262
N237 G01 Y-48.259
N238 G01 X5.278 Y-48.028
N239 G01 Y-48.025
N240 G01 X5.224 Y-47.801
N241 G01 X5.223 Y-47.799
N242 G01 X5.135 Y-47.585
N243 G01 X5.133 Y-47.583
N244 G01 X5.013 Y-47.386
N245 G01 X5.011 Y-47.384
N246 G01 X4.862 Y-47.209
N247 G01 X4.86 Y-47.208
N248 G01 X4.686 Y-47.059
N249 G01 X4.683 Y-47.057
N250 G01 X4.487 Y-46.937
N251 G01 X4.484 Y-46.935
N252 G01 X4.27 Y-46.847
N253 G01 X4.268 Y-46.846
N254 G01 X4.044 Y-46.792
N255 G01 X4.041
N256 G01 X3.812 Y-46.774
N257 G01 X3.81
N258 G01 X3.578 Y-46.792
N259 G01 X3.576
N260 G01 X3.352 Y-46.846
N261 G01 X3.35 Y-46.847
N262 G01 X3.136 Y-46.935
N263 G01 X3.133 Y-46.937
N264 G01 X2.937 Y-47.057
N265 G01 X2.934 Y-47.059
N266 G01 X2.76 Y-47.208
N267 G01 X2.758 Y-47.21
N268 G01 X2.609 Y-47.384
N269 G01 X2.607 Y-47.386
N270 G01 X2.487 Y-47.583
N271 G01 X2.485 Y-47.585
N272 G01 X2.397 Y-47.8
N273 G01 X2.396 Y-47.802
N274 G01 X2.342 Y-48.025
N275 G01 Y-48.028
N276 G01 X2.324 Y-48.259
N277 G01 Y-48.262
N278 G01 X2.342 Y-48.491
N279 G01 Y-48.493
N280 G01 X2.396 Y-48.718
N281 G01 X2.397 Y-48.72
N282 G01 X2.485 Y-48.934
N283 G01 X2.486 Y-48.936
N284 G01 X2.606 Y-49.132
N285 G01 X2.608 Y-49.134
N286 G01 X2.758 Y-49.31
N287 G01 X2.759 Y-49.311
N288 G00 Z-2.
N289 G00 X5.333 Y-47.378
N290 G00 Z-1.
N291 G01 Z-0.01 F100
N292 G01 X5.289 Y-47.273 Z-0.006 F200
N293 G01 X5.288 Y-47.271
N294 G01 X4.8 Y-46.783 Z0.018
N295 G01 X4.798 Y-46.781
N296 G01 X4.158 Y-46.516 Z0.042
N297 G01 X4.157
N298 G01 X3.463 Z0.067
N299 G01 X2.822 Y-46.781 Z0.091
N300 G01 X2.82 Y-46.783
N301 G01 X2.332 Y-47.271 Z0.115
N302 G01 X2.331 Y-47.273
N303 G01 X2.066 Y-47.912 Z0.139
N304 G01 Y-47.914
N305 G01 Y-48.605 Z0.164
N306 G01 Y-48.607
N307 G01 X2.331 Y-49.247 Z0.188
N308 G01 X2.332 Y-49.249
N309 G01 X2.577 Y-49.494 Z0.2
N310 G01 X2.82 Y-49.736 F100
N311 G01 X2.822 Y-49.739
N312 G01 X3.462 Y-50.004
N313 G01 X3.464
N314 G01 X4.156
N315 G01 X4.158
N316 G01 X4.798 Y-49.739
N317 G01 X4.8 Y-49.737
N318 G01 X5.288 Y-49.249
N319 G01 X5.289 Y-49.247
N320 G01 X5.554 Y-48.607
N321 G01 Y-48.605
N322 G01 Y-47.914
N323 G01 Y-47.912
N324 G01 X5.289 Y-47.273
N325 G01 X5.288 Y-47.271
N326 G01 X4.8 Y-46.783
N327 G01 X4.798 Y-46.781
N328 G01 X4.158 Y-46.516
N329 G01 X4.157
N330 G01 X3.463
N331 G01 X2.822 Y-46.781
N332 G01 X2.82 Y-46.783
N333 G01 X2.332 Y-47.271
N334 G01 X2.331 Y-47.273
N335 G01 X2.066 Y-47.912
N336 G01 Y-47.914
N337 G01 Y-48.605
N338 G01 Y-48.607
N339 G01 X2.331 Y-49.247
N340 G01 X2.332 Y-49.249
N341 G01 X2.577 Y-49.494
N342 G00 Z-2.
N343 G00 X36.055 Y-4.436
N344 G00 Z-1.
N345 G01 Z-0.01 F100
N346 G01 X30.987 Z0.004 F200
N347 G01 X30.985
N348 G01 X30.75 Y-4.534 Z0.005
N349 G01 X30.748 Y-4.536
N350 G01 X25.258 Y-10.026 Z0.027
N351 G01 X25.253 Y-10.03
N352 G01 X25.249 Y-10.034
N353 G01 X25.245 Y-10.037
N354 G01 X25.225 Y-10.051
N355 G01 X25.206 Y-10.063
N356 G01 X25.2 Y-10.067
N357 G01 X25.193 Y-10.07
N358 G01 X25.187 Y-10.072
N359 G01 X25.181 Y-10.074
N360 G01 X25.174 Y-10.076
N361 G01 X25.166 Y-10.078
N362 G01 X25.146 Y-10.082
N363 G01 X25.136 Y-10.084
N364 G01 X25.126 Y-10.085
N365 G01 X25.116 Y-10.086
N366 G01 X25.106
N367 G01 X24.843 Z0.028
N368 G01 X24.841 Y-10.088
N369 G01 X24.735 Y-10.194 Z0.029
N370 G01 X24.728 Y-10.201
N371 G01 X24.724 Y-10.205
N372 G01 X24.717 Y-10.21
N373 G01 X24.708 Y-10.216
N374 G01 X24.688 Y-10.23
N375 G01 X24.682 Y-10.233
N376 G01 X24.674 Y-10.238
N377 G01 X24.665 Y-10.242
N378 G01 X24.657 Y-10.245
N379 G01 X24.648 Y-10.248
N380 G01 X24.608 Y-10.256
N381 G01 X24.599 Y-10.257
N382 G01 X24.589 Y-10.258
N383 G01 X24.579 Y-10.257
N384 G01 X24.569 Y-10.256
N385 G01 X24.529 Y-10.248
N386 G01 X24.52 Y-10.246
N387 G01 X24.511 Y-10.242
N388 G01 X24.501 Y-10.238
N389 G01 X24.492 Y-10.233
N390 G01 X24.489 Y-10.231
N391 G01 X24.469 Y-10.218
N392 G01 X24.459 Y-10.211
N393 G01 X24.455 Y-10.208
N394 G01 X24.449 Y-10.203
N395 G01 X24.44 Y-10.194 Z0.03
N396 G01 X22.59 Y-8.344 Z0.037
N397 G01 X22.354 Y-8.246 Z0.038
N398 G01 X22.352
N399 G01 X16.384 Z0.054
N400 G01 X16.381
N401 G01 X16.147 Y-8.343 Z0.055
N402 G01 X16.145 Y-8.344
N403 G01 X14.695 Y-9.794 Z0.061
N404 G01 X14.694 Y-9.796
N405 G01 X14.597 Y-10.029 Z0.062
N406 G01 X14.596 Y-10.032
N407 G01 Y-20.818 Z0.092
N408 G01 X14.595 Y-20.828
N409 G01 X14.594 Y-20.838
N410 G01 X14.59 Y-20.858
N411 G01 X14.586 Y-20.878
N412 G01 X14.583 Y-20.888
N413 G01 X14.579 Y-20.897
N414 G01 X14.577 Y-20.901
N415 G01 X14.573 Y-20.91
N416 G01 X14.567 Y-20.919
N417 G01 X14.554 Y-20.937 Z0.093
N418 G01 X14.547 Y-20.948
N419 G01 X14.542 Y-20.953
N420 G01 X14.538 Y-20.959
N421 G01 X14.532 Y-20.964
N422 G01 X14.527 Y-20.969
N423 G01 X14.521 Y-20.973
N424 G01 X14.515 Y-20.977
N425 G01 X14.498 Y-20.988
N426 G01 X14.488 Y-20.995
N427 G01 X14.483 Y-20.998
N428 G01 X14.478 Y-21.
N429 G01 X14.468 Y-21.005
N430 G01 X14.458 Y-21.008
N431 G01 X14.448 Y-21.011
N432 G01 X14.438 Y-21.013
N433 G01 X14.414 Y-21.017
N434 G01 X14.405 Y-21.018
N435 G01 X14.396 Y-21.019
N436 G01 X14.387
N437 G01 X14.378 Y-21.018
N438 G01 X14.369 Y-21.017
N439 G01 X14.339 Y-21.01
N440 G01 X14.329 Y-21.007
N441 G01 X14.319 Y-21.004
N442 G01 X14.309 Y-21.
N443 G01 X14.304 Y-20.998
N444 G01 X14.299 Y-20.995
N445 G01 X14.272 Y-20.977
N446 G01 X14.266 Y-20.972
N447 G01 X14.259 Y-20.967
N448 G01 X14.229 Y-20.937 Z0.094
N449 G01 X14.042 Y-20.751
N450 G01 X14.036 Y-20.744
N451 G01 X14.03 Y-20.738
N452 G01 X14.025 Y-20.731
N453 G01 X14.02 Y-20.724
N454 G01 X14.003 Y-20.699 Z0.095
N455 G01 X14. Y-20.694
N456 G01 X13.998 Y-20.689
N457 G01 X13.993 Y-20.679
N458 G01 X13.99 Y-20.669
N459 G01 X13.988 Y-20.659
N460 G01 X13.98 Y-20.62
N461 G01 Y-20.619
N462 G01 X13.979 Y-20.609
N463 G01 Y-20.599
N464 G01 Y-13.208 Z0.116
N465 G01 Y-13.205
N466 G01 X13.882 Y-12.972
N467 G01 X13.881 Y-12.97
N468 G01 X13.476 Y-12.565 Z0.118
N469 G01 X13.469 Y-12.557
N470 G01 X13.463 Y-12.549
N471 G01 X13.457 Y-12.541
N472 G01 X13.444 Y-12.521
N473 G01 X13.438 Y-12.511
N474 G01 X13.435 Y-12.506
N475 G01 X13.433 Y-12.501
N476 G01 X13.43 Y-12.493
N477 G01 X13.427 Y-12.484
N478 G01 X13.423 Y-12.466
N479 G01 X13.419 Y-12.442
N480 G01 X13.417 Y-12.432
N481 G01 Y-12.422
N482 G01 Y-12.412
N483 G01 X13.418 Y-12.402 Z0.119
N484 G01 X13.422 Y-12.382
N485 G01 X13.423 Y-12.379
N486 G01 X13.427 Y-12.36
N487 G01 X13.43 Y-12.351
N488 G01 X13.433 Y-12.342
N489 G01 X13.438 Y-12.332
N490 G01 X13.441 Y-12.327
N491 G01 X13.444 Y-12.322
N492 G01 X13.457 Y-12.302
N493 G01 X13.463 Y-12.294
N494 G01 X13.469 Y-12.287
N495 G01 X13.476 Y-12.279
N496 G01 X13.767 Y-11.988 Z0.12
N497 G01 X13.768 Y-11.986
N498 G01 Y-10.875 Z0.123
N499 G01 Y-10.873
N500 G01 X12.981 Y-10.086 Z0.126
N501 G01 X12.98
N502 G01 X11.869 Z0.13
N503 G01 X11.867
N504 G01 X11.08 Y-10.873 Z0.133
N505 G01 X11.079 Y-10.875
N506 G01 Y-11.986 Z0.136
N507 G01 X11.08 Y-11.987
N508 G01 X11.865 Y-12.772 Z0.139
N509 G01 X11.868 Y-12.774
N510 G01 X11.89
N511 G01 X11.9
N512 G01 X11.91 Y-12.775
N513 G01 X11.92 Y-12.776
N514 G01 X11.93 Y-12.778
N515 G01 X11.95 Y-12.782
N516 G01 X11.96 Y-12.784
N517 G01 X11.97 Y-12.788
N518 G01 X11.98 Y-12.792
N519 G01 X11.985 Y-12.794
N520 G01 X11.99 Y-12.797
N521 G01 X12.007 Y-12.808
N522 G01 X12.025 Y-12.82
N523 G01 X12.03 Y-12.824
N524 G01 X12.035 Y-12.827
N525 G01 X12.039 Y-12.832
N526 G01 X12.044 Y-12.837
N527 G01 X12.049 Y-12.842
N528 G01 X12.052 Y-12.846 Z0.14
N529 G01 X12.056 Y-12.851
N530 G01 X12.062 Y-12.86
N531 G01 X12.072 Y-12.875
N532 G01 X12.078 Y-12.885
N533 G01 X12.082 Y-12.892
N534 G01 X12.085 Y-12.899
N535 G01 X12.153 Y-13.064
N536 G01 X12.155 Y-13.066
N537 G01 X12.627 Y-13.538 Z0.142
N538 G01 X12.636 Y-13.547
N539 G01 X12.641 Y-13.554
N540 G01 X12.645 Y-13.559
N541 G01 X12.656 Y-13.576
N542 G01 X12.667 Y-13.591
N543 G01 X12.67 Y-13.597
N544 G01 X12.673 Y-13.603
N545 G01 X12.676 Y-13.61
N546 G01 X12.678 Y-13.616
N547 G01 X12.681 Y-13.626
N548 G01 X12.683 Y-13.636
N549 G01 X12.687 Y-13.655
N550 G01 X12.689 Y-13.665
N551 G01 X12.69 Y-13.675 Z0.143
N552 G01 X12.691 Y-13.695
N553 G01 Y-21.082 Z0.163
N554 G01 Y-21.084
N555 G01 X12.788 Y-21.319 Z0.164
N556 G01 X12.789 Y-21.32
N557 G01 X21.77 Y-30.301 Z0.2
N558 G01 X33.289 Y-41.82 F100
N559 G01 X33.291 Y-41.822
N560 G01 X33.525 Y-41.919
N561 G01 X33.528
N562 G01 X36.948
N563 G01 X36.958
N564 G01 X36.968 Y-41.92
N565 G01 X36.978 Y-41.921
N566 G01 X36.988 Y-41.923
N567 G01 X37.008 Y-41.927
N568 G01 X37.018 Y-41.93
N569 G01 X37.028 Y-41.933
N570 G01 X37.035 Y-41.936
N571 G01 X37.042 Y-41.939
N572 G01 X37.049 Y-41.943
N573 G01 X37.056 Y-41.947
N574 G01 X37.068 Y-41.955
N575 G01 X37.087 Y-41.969
N576 G01 X37.092 Y-41.973
N577 G01 X37.097 Y-41.977
N578 G01 X37.108 Y-41.988
N579 G01 X37.21 Y-42.09
N580 G01 X37.212 Y-42.091
N581 G01 X39.329
N582 G01 X39.332 Y-42.089
N583 G01 X39.414 Y-42.006
N584 G01 Y-42.005
N585 G01 Y-39.888
N586 G01 Y-39.886
N587 G01 X39.332 Y-39.804
N588 G01 X39.329 Y-39.802
N589 G01 X39.018
N590 G01 X38.978
N591 G01 X38.972
N592 G01 X38.965 Y-39.801
N593 G01 X38.951 Y-39.799
N594 G01 X38.939 Y-39.796
N595 G01 X38.919 Y-39.792
N596 G01 X38.909 Y-39.789
N597 G01 X38.899 Y-39.785
N598 G01 X38.894 Y-39.782
N599 G01 X38.889 Y-39.78
N600 G01 X38.884 Y-39.777
N601 G01 X38.879 Y-39.774
N602 G01 X38.857 Y-39.759
N603 G01 X38.846 Y-39.75
N604 G01 X38.84 Y-39.745
N605 G01 X38.834 Y-39.74
N606 G01 X38.83 Y-39.735
N607 G01 X38.826 Y-39.73
N608 G01 X38.822 Y-39.725
N609 G01 X38.819 Y-39.72
N610 G01 X38.806 Y-39.699
N611 G01 X38.799 Y-39.689
N612 G01 X38.797 Y-39.684
N613 G01 X38.794 Y-39.679
N614 G01 X38.79 Y-39.669
N615 G01 X38.787 Y-39.659
N616 G01 X38.783 Y-39.639
N617 G01 X38.779 Y-39.615
N618 G01 Y-39.607
N619 G01 X38.778 Y-39.6
N620 G01 Y-39.59
N621 G01 X38.779 Y-39.58
N622 G01 X38.781 Y-39.57
N623 G01 X38.788 Y-39.54
N624 G01 X38.791 Y-39.53
N625 G01 X38.795 Y-39.52
N626 G01 X38.799 Y-39.51
N627 G01 X38.802 Y-39.505
N628 G01 X38.805 Y-39.5
N629 G01 X38.819 Y-39.48
N630 G01 X38.826 Y-39.47
N631 G01 X38.83 Y-39.465
N632 G01 X38.835 Y-39.46
N633 G01 X38.854 Y-39.44
N634 G01 X38.859 Y-39.436
N635 G01 X38.865 Y-39.431
N636 G01 X38.871 Y-39.426
N637 G01 X38.879 Y-39.42
N638 G01 X38.899 Y-39.407
N639 G01 X38.909 Y-39.401
N640 G01 X38.917 Y-39.397
N641 G01 X38.924 Y-39.394
N642 G01 X38.931 Y-39.391
N643 G01 X38.939 Y-39.389
N644 G01 X38.959 Y-39.385
N645 G01 X38.978 Y-39.381
N646 G01 X38.988 Y-39.38
N647 G01 X38.998 Y-39.379
N648 G01 X39.794
N649 G01 X39.804 Y-39.38
N650 G01 X39.814 Y-39.381
N651 G01 X39.854 Y-39.389
N652 G01 X39.862 Y-39.391
N653 G01 X39.869 Y-39.394
N654 G01 X39.876 Y-39.397
N655 G01 X39.884 Y-39.401
N656 G01 X39.889 Y-39.404
N657 G01 X39.894 Y-39.407
N658 G01 X39.914 Y-39.421
N659 G01 X39.924 Y-39.428
N660 G01 X39.929 Y-39.432
N661 G01 X39.934 Y-39.436
N662 G01 X39.938 Y-39.44
N663 G01 X39.943 Y-39.445
N664 G01 X39.947 Y-39.45
N665 G01 X39.951 Y-39.455
N666 G01 X39.954 Y-39.46
N667 G01 X39.967 Y-39.48
N668 G01 X39.974 Y-39.491
N669 G01 X39.978 Y-39.498
N670 G01 X39.981 Y-39.505
N671 G01 X39.984 Y-39.513
N672 G01 X39.986 Y-39.52
N673 G01 X39.99 Y-39.54
N674 G01 X39.994 Y-39.56
N675 G01 X39.995 Y-39.57
N676 G01 X39.996 Y-39.58
N677 G01 Y-39.6
N678 G01 Y-42.671
N679 G01 Y-42.674
N680 G01 X40.093 Y-42.908
N681 G01 X40.094 Y-42.91
N682 G01 X45.989 Y-48.806
N683 G01 X45.992 Y-48.807
N684 G01 X46.225 Y-48.904
N685 G01 X46.228
N686 G01 X106.808
N687 G01 X106.81 Y-48.903
N688 G01 X107.044 Y-48.807
N689 G01 X107.047 Y-48.804
N690 G01 X124.608 Y-31.243
N691 G01 X124.641 Y-31.211
N692 G01 X124.645 Y-31.207
N693 G01 X124.65 Y-31.204
N694 G01 X124.681 Y-31.183
N695 G01 X124.686 Y-31.18
N696 G01 X124.691 Y-31.177
N697 G01 X124.701 Y-31.172
N698 G01 X124.711 Y-31.169
N699 G01 X124.721 Y-31.166
N700 G01 X124.733 Y-31.164
N701 G01 X124.76 Y-31.159
N702 G01 X124.77 Y-31.158
N703 G01 X124.78 Y-31.157
N704 G01 X124.79 Y-31.158
N705 G01 X124.8 Y-31.159
N706 G01 X124.822 Y-31.164
N707 G01 X124.84 Y-31.168
N708 G01 X124.85 Y-31.171
N709 G01 X124.86 Y-31.175
N710 G01 X124.865 Y-31.177
N711 G01 X124.87 Y-31.18
N712 G01 X124.875 Y-31.183
N713 G01 X124.88 Y-31.186
N714 G01 X124.905 Y-31.204
N715 G01 X124.912 Y-31.209
N716 G01 X124.92 Y-31.216
N717 G01 X127.029 Y-33.326
N718 G01 X127.056 Y-33.352
N719 G01 X127.06 Y-33.357
N720 G01 X127.063 Y-33.361
N721 G01 X127.069 Y-33.37
N722 G01 X127.084 Y-33.392
N723 G01 X127.087 Y-33.397
N724 G01 X127.089 Y-33.402
N725 G01 X127.094 Y-33.412
N726 G01 X127.098 Y-33.422
N727 G01 X127.101 Y-33.432
N728 G01 X127.105 Y-33.452
N729 G01 X127.108 Y-33.472
N730 G01 X127.109 Y-33.477
N731 G01 Y-33.479
N732 G01 X127.11 Y-33.483
N733 G01 Y-33.489
N734 G01 Y-33.499
N735 G01 Y-33.501
N736 G01 X127.788 Y-34.179
N737 G01 X127.79 Y-34.18
N738 G01 X128.75
N739 G01 X128.752 Y-34.179
N740 G01 X129.429 Y-33.502
N741 G01 X129.43 Y-33.499
N742 G01 Y-32.54
N743 G01 X129.429 Y-32.538
N744 G01 X128.811 Y-31.92
N745 G01 X128.781 Y-31.89
N746 G01 X128.775 Y-31.883
N747 G01 X128.773 Y-31.88
N748 G01 X128.759 Y-31.86
N749 G01 X128.746 Y-31.84
N750 G01 X128.744 Y-31.835
N751 G01 X128.741 Y-31.83
N752 G01 X128.738 Y-31.823
N753 G01 X128.736 Y-31.815
N754 G01 X128.734 Y-31.808
N755 G01 X128.732 Y-31.8
N756 G01 X128.726 Y-31.771
N757 G01 X128.725 Y-31.761
N758 G01 Y-31.751
N759 G01 Y-31.741
N760 G01 X128.726 Y-31.731
N761 G01 X128.728 Y-31.721
N762 G01 X128.734 Y-31.691
N763 G01 X128.737 Y-31.681
N764 G01 X128.739 Y-31.676
N765 G01 X128.741 Y-31.67
N766 G01 X128.744 Y-31.663
N767 G01 X128.748 Y-31.656
N768 G01 X128.758 Y-31.641
N769 G01 X128.768 Y-31.626
N770 G01 X128.774 Y-31.618
N771 G01 X128.781 Y-31.61
N772 G01 X128.789 Y-31.601
N773 G01 X129.429 Y-30.962
N774 G01 X129.43 Y-30.96
N775 G01 Y-30.
N776 G01 X129.429 Y-29.998
N777 G01 X128.804 Y-29.373
N778 G01 X128.781 Y-29.35
N779 G01 X128.775 Y-29.343
N780 G01 X128.77 Y-29.337
N781 G01 X128.768 Y-29.333
N782 G01 X128.755 Y-29.313
N783 G01 X128.748 Y-29.303
N784 G01 X128.745 Y-29.299
N785 G01 X128.743 Y-29.294
N786 G01 X128.741 Y-29.29
N787 G01 X128.737 Y-29.281
N788 G01 X128.735 Y-29.272
N789 G01 X128.731 Y-29.254
N790 G01 X128.727 Y-29.234
N791 G01 X128.725 Y-29.224
N792 G01 Y-29.214
N793 G01 Y-29.204
N794 G01 Y-29.194
N795 G01 X128.727 Y-29.184
N796 G01 X128.729 Y-29.174
N797 G01 X128.734 Y-29.154
N798 G01 X128.736 Y-29.144
N799 G01 X128.739 Y-29.134
N800 G01 X128.741 Y-29.13
N801 G01 X128.745 Y-29.121
N802 G01 X128.75 Y-29.112
N803 G01 X128.762 Y-29.095
N804 G01 X128.771 Y-29.082
N805 G01 X128.776 Y-29.076
N806 G01 X128.781 Y-29.07
N807 G01 X128.796 Y-29.055
N808 G01 X129.429 Y-28.422
N809 G01 X129.43 Y-28.42
N810 G01 Y-27.461
N811 G01 Y-27.459
N812 G01 X128.797 Y-26.826
N813 G01 X128.781 Y-26.81
N814 G01 X128.776 Y-26.804
N815 G01 X128.771 Y-26.798
N816 G01 X128.763 Y-26.787
N817 G01 X128.751 Y-26.768
N818 G01 X128.746 Y-26.759
N819 G01 X128.741 Y-26.75
N820 G01 X128.74 Y-26.747
N821 G01 X128.736 Y-26.737
N822 G01 X128.733 Y-26.727
N823 G01 X128.73 Y-26.707
N824 G01 X128.726 Y-26.687
N825 G01 X128.725 Y-26.677
N826 G01 Y-26.667
N827 G01 Y-26.657
N828 G01 X128.726 Y-26.647
N829 G01 X128.731 Y-26.628
N830 G01 X128.735 Y-26.609
N831 G01 X128.738 Y-26.599
N832 G01 X128.741 Y-26.59
N833 G01 X128.742 Y-26.588
N834 G01 X128.744 Y-26.583
N835 G01 X128.747 Y-26.578
N836 G01 X128.75 Y-26.573
N837 G01 X128.753 Y-26.568
N838 G01 X128.769 Y-26.544
N839 G01 X128.775 Y-26.537
N840 G01 X128.781 Y-26.53
N841 G01 X128.803 Y-26.508
N842 G01 X129.43 Y-25.881
N843 G01 Y-25.88
N844 G01 Y-24.921
N845 G01 Y-24.919
N846 G01 X128.791 Y-24.28
N847 G01 X128.781 Y-24.27
N848 G01 X128.774 Y-24.262
N849 G01 X128.769 Y-24.255
N850 G01 X128.759 Y-24.24
N851 G01 X128.749 Y-24.225
N852 G01 X128.745 Y-24.217
N853 G01 X128.741 Y-24.21
N854 G01 X128.737 Y-24.2
N855 G01 X128.734 Y-24.19
N856 G01 X128.732 Y-24.18
N857 G01 X128.726 Y-24.15
N858 G01 X128.725 Y-24.141
N859 G01 Y-24.131
N860 G01 Y-24.121
N861 G01 X128.726 Y-24.111
N862 G01 X128.728 Y-24.101
N863 G01 X128.732 Y-24.081
N864 G01 X128.736 Y-24.065
N865 G01 X128.738 Y-24.058
N866 G01 X128.741 Y-24.05
N867 G01 X128.745 Y-24.041
N868 G01 X128.748 Y-24.036
N869 G01 X128.751 Y-24.031
N870 G01 X128.758 Y-24.021
N871 G01 X128.772 Y-24.001
N872 G01 X128.775 Y-23.997
N873 G01 X128.781 Y-23.99
N874 G01 X128.809 Y-23.961
N875 G01 X129.43 Y-23.341
N876 G01 Y-23.339
N877 G01 Y-22.38
N878 G01 X129.428 Y-22.377
N879 G01 X128.784 Y-21.733
N880 G01 X128.781 Y-21.73
N881 G01 X128.777 Y-21.725
N882 G01 X128.773 Y-21.721
N883 G01 X128.767 Y-21.712
N884 G01 X128.755 Y-21.693
N885 G01 X128.747 Y-21.682
N886 G01 X128.744 Y-21.676
N887 G01 X128.741 Y-21.67
N888 G01 X128.738 Y-21.662
N889 G01 X128.735 Y-21.654
N890 G01 X128.733 Y-21.644
N891 G01 X128.731 Y-21.634
N892 G01 X128.727 Y-21.614
N893 G01 X128.725 Y-21.604
N894 G01 Y-21.594
N895 G01 Y-21.584
N896 G01 Y-21.574
N897 G01 X128.727 Y-21.564
N898 G01 X128.729 Y-21.554
N899 G01 X128.734 Y-21.534
N900 G01 X128.737 Y-21.522
N901 G01 X128.739 Y-21.516
N902 G01 X128.741 Y-21.51
N903 G01 X128.745 Y-21.502
N904 G01 X128.749 Y-21.494
N905 G01 X128.762 Y-21.474
N906 G01 X128.769 Y-21.465
N907 G01 X128.773 Y-21.46
N908 G01 X128.777 Y-21.455
N909 G01 X128.781 Y-21.45
N910 G01 X128.816 Y-21.415
N911 G01 X129.429 Y-20.802
N912 G01 X129.43 Y-20.8
N913 G01 Y-19.84
N914 G01 X129.429 Y-19.838
N915 G01 X128.752 Y-19.161
N916 G01 X128.75 Y-19.16
N917 G01 X127.79
N918 G01 X127.789
N919 G01 X127.734 Y-19.215
N920 G01 X127.728 Y-19.221
N921 G01 X127.722 Y-19.226
N922 G01 X127.714 Y-19.232
N923 G01 X127.706 Y-19.238
N924 G01 X127.686 Y-19.251
N925 G01 X127.676 Y-19.257
N926 G01 X127.671 Y-19.26
N927 G01 X127.666 Y-19.262
N928 G01 X127.661 Y-19.264
N929 G01 X127.655 Y-19.266
N930 G01 X127.648 Y-19.268
N931 G01 X127.641 Y-19.27
N932 G01 X127.627 Y-19.272
N933 G01 X127.607 Y-19.276
N934 G01 X127.597 Y-19.277
N935 G01 X127.587 Y-19.278
N936 G01 X127.577 Y-19.277
N937 G01 X127.567 Y-19.276
N938 G01 X127.547 Y-19.272
N939 G01 X127.521 Y-19.266
N940 G01 X127.514 Y-19.264
N941 G01 X127.507 Y-19.261
N942 G01 X127.497 Y-19.256
N943 G01 X127.492 Y-19.253
N944 G01 X127.487 Y-19.25
N945 G01 X127.467 Y-19.237
N946 G01 X127.46 Y-19.232
N947 G01 X127.453 Y-19.226
N948 G01 X127.447 Y-19.22
N949 G01 X127.44 Y-19.214
N950 G01 X122.92 Y-14.694
N951 G01 X122.918 Y-14.693
N952 G01 X122.686 Y-14.597
N953 G01 X122.683 Y-14.596
N954 G01 X96.239
N955 G01 X96.23
N956 G01 X96.22 Y-14.595
N957 G01 X96.18 Y-14.587
N958 G01 X96.17 Y-14.584
N959 G01 X96.16 Y-14.581
N960 G01 X96.15 Y-14.577
N961 G01 X96.145 Y-14.574
N962 G01 X96.14 Y-14.571
N963 G01 X96.139
N964 G01 X96.12 Y-14.558
N965 G01 X96.11 Y-14.551
N966 G01 X96.105 Y-14.547
N967 G01 X96.1 Y-14.543
N968 G01 X96.087 Y-14.531
N969 G01 X95.848 Y-14.292
N970 G01 X95.84 Y-14.283
N971 G01 X95.833 Y-14.275
N972 G01 X95.821 Y-14.258
N973 G01 X95.818 Y-14.252
N974 G01 X95.811 Y-14.242
N975 G01 X95.808 Y-14.237
N976 G01 X95.806 Y-14.232
N977 G01 X95.801 Y-14.222
N978 G01 X95.797 Y-14.212
N979 G01 X95.795 Y-14.203
N980 G01 X95.793 Y-14.193
N981 G01 X95.789 Y-14.173
N982 G01 X95.787 Y-14.163
N983 G01 X95.786 Y-14.153
N984 G01 Y-14.143
N985 G01 X95.787 Y-14.133
N986 G01 X95.788 Y-14.123
N987 G01 X95.79 Y-14.113
N988 G01 X95.794 Y-14.093
N989 G01 X95.797 Y-14.083
N990 G01 X95.8 Y-14.073
N991 G01 X95.804 Y-14.063
N992 G01 X95.806 Y-14.058
N993 G01 X95.809 Y-14.053
N994 G01 X95.812 Y-14.049
N995 G01 X95.815 Y-14.044
N996 G01 X95.821 Y-14.035
N997 G01 X95.837 Y-14.014
N998 G01 X95.842 Y-14.007
N999 G01 X95.849 Y-14.
N1000 G01 X95.855 Y-13.994
N1001 G01 X95.861 Y-13.989
N1002 G01 X95.886 Y-13.974
N1003 G01 X95.901 Y-13.965
N1004 G01 X95.906 Y-13.962
N1005 G01 X95.911 Y-13.96
N1006 G01 X95.921 Y-13.956
N1007 G01 X95.931 Y-13.953
N1008 G01 X95.941 Y-13.951
N1009 G01 X95.961 Y-13.947
N1010 G01 X95.971 Y-13.946
N1011 G01 X95.981 Y-13.945
N1012 G01 X96.021 Y-13.944
N1013 G01 X97.035
N1014 G01 X97.036 Y-13.943
N1015 G01 X97.643 Y-13.337
N1016 G01 X97.653 Y-13.327
N1017 G01 X97.658 Y-13.323
N1018 G01 X97.663 Y-13.319
N1019 G01 X97.672 Y-13.313
N1020 G01 X97.692 Y-13.3
N1021 G01 X97.696 Y-13.297
N1022 G01 X97.705 Y-13.292
N1023 G01 X97.714 Y-13.288
N1024 G01 X97.723 Y-13.285
N1025 G01 X97.732 Y-13.282
N1026 G01 X97.772 Y-13.275
N1027 G01 X97.782 Y-13.274
N1028 G01 X97.792 Y-13.273
N1029 G01 X97.802 Y-13.274
N1030 G01 X97.812 Y-13.275
N1031 G01 X97.852 Y-13.284
N1032 G01 X97.86 Y-13.286
N1033 G01 X97.868 Y-13.289
N1034 G01 X97.876 Y-13.293
N1035 G01 X97.885 Y-13.297
N1036 G01 X97.891 Y-13.302
N1037 G01 X97.911 Y-13.315
N1038 G01 X97.92 Y-13.321
N1039 G01 X97.926 Y-13.326
N1040 G01 X97.931 Y-13.331
N1041 G01 X97.937 Y-13.337
N1042 G01 X98.543 Y-13.942
N1043 G01 X98.545 Y-13.944
N1044 G01 X99.575
N1045 G01 X99.576
N1046 G01 X100.183 Y-13.337
N1047 G01 X100.191 Y-13.329
N1048 G01 X100.195 Y-13.326
N1049 G01 X100.2 Y-13.321
N1050 G01 X100.218 Y-13.309
N1051 G01 X100.236 Y-13.297
N1052 G01 X100.24 Y-13.295
N1053 G01 X100.245 Y-13.292
N1054 G01 X100.25 Y-13.29
N1055 G01 X100.26 Y-13.286
N1056 G01 X100.27 Y-13.283
N1057 G01 X100.28 Y-13.281
N1058 G01 X100.3 Y-13.277
N1059 G01 X100.31 Y-13.275
N1060 G01 X100.32 Y-13.274
N1061 G01 X100.33 Y-13.273
N1062 G01 X100.339 Y-13.274
N1063 G01 X100.349 Y-13.275
N1064 G01 X100.359 Y-13.277
N1065 G01 X100.379 Y-13.281
N1066 G01 X100.389 Y-13.283
N1067 G01 X100.399 Y-13.286
N1068 G01 X100.406 Y-13.288
N1069 G01 X100.412 Y-13.291
N1070 G01 X100.418 Y-13.294
N1071 G01 X100.425 Y-13.297
N1072 G01 X100.439 Y-13.307
N1073 G01 X100.456 Y-13.319
N1074 G01 X100.462 Y-13.323
N1075 G01 X100.468 Y-13.328
N1076 G01 X100.477 Y-13.337
N1077 G01 X101.083 Y-13.943
N1078 G01 X101.086 Y-13.944
N1079 G01 X102.115
N1080 G01 X102.116 Y-13.943
N1081 G01 X102.723 Y-13.337
N1082 G01 X102.733 Y-13.328
N1083 G01 X102.74 Y-13.321
N1084 G01 X102.748 Y-13.316
N1085 G01 X102.776 Y-13.297
N1086 G01 X102.782 Y-13.294
N1087 G01 X102.788 Y-13.291
N1088 G01 X102.798 Y-13.287
N1089 G01 X102.807 Y-13.284
N1090 G01 X102.817 Y-13.281
N1091 G01 X102.847 Y-13.276
N1092 G01 X102.857 Y-13.274
N1093 G01 X102.867 Y-13.273
N1094 G01 X102.877 Y-13.274
N1095 G01 X102.887
N1096 G01 X102.897 Y-13.276
N1097 G01 X102.927 Y-13.283
N1098 G01 X102.937 Y-13.285
N1099 G01 X102.947 Y-13.289
N1100 G01 X102.956 Y-13.292
N1101 G01 X102.965 Y-13.297
N1102 G01 X102.987 Y-13.312
N1103 G01 X102.999 Y-13.321
N1104 G01 X103.003 Y-13.323
N1105 G01 X103.008 Y-13.328
N1106 G01 X103.017 Y-13.337
N1107 G01 X103.623 Y-13.943
N1108 G01 X103.626 Y-13.944
N1109 G01 X104.653
N1110 G01 X104.656
N1111 G01 X105.263 Y-13.337
N1112 G01 X105.272 Y-13.328
N1113 G01 X105.278 Y-13.323
N1114 G01 X105.282 Y-13.32
N1115 G01 X105.295 Y-13.311
N1116 G01 X105.316 Y-13.297
N1117 G01 X105.326 Y-13.292
N1118 G01 X105.335 Y-13.288
N1119 G01 X105.345 Y-13.284
N1120 G01 X105.355 Y-13.282
N1121 G01 X105.375 Y-13.278
N1122 G01 X105.395 Y-13.274
N1123 G01 X105.405
N1124 G01 X105.415 Y-13.273
N1125 G01 X105.425 Y-13.274
N1126 G01 X105.435 Y-13.276
N1127 G01 X105.455 Y-13.28
N1128 G01 X105.474 Y-13.284
N1129 G01 X105.484 Y-13.288
N1130 G01 X105.494 Y-13.292
N1131 G01 X105.499 Y-13.294
N1132 G01 X105.505 Y-13.297
N1133 G01 X105.534 Y-13.317
N1134 G01 X105.541 Y-13.322
N1135 G01 X105.548 Y-13.328
N1136 G01 X105.557 Y-13.337
N1137 G01 X106.163 Y-13.942
N1138 G01 X106.165 Y-13.944
N1139 G01 X107.193
N1140 G01 X107.196
N1141 G01 X107.803 Y-13.337
N1142 G01 X107.812 Y-13.328
N1143 G01 X107.819 Y-13.322
N1144 G01 X107.825 Y-13.318
N1145 G01 X107.843 Y-13.306
N1146 G01 X107.856 Y-13.297
N1147 G01 X107.863 Y-13.293
N1148 G01 X107.869 Y-13.29
N1149 G01 X107.876 Y-13.287
N1150 G01 X107.883 Y-13.285
N1151 G01 X107.893 Y-13.282
N1152 G01 X107.903 Y-13.28
N1153 G01 X107.923 Y-13.277
N1154 G01 X107.932 Y-13.275
N1155 G01 X107.942 Y-13.274
N1156 G01 X107.952 Y-13.273
N1157 G01 X107.962 Y-13.274
N1158 G01 X107.972 Y-13.275
N1159 G01 X107.982 Y-13.277
N1160 G01 X108.002 Y-13.282
N1161 G01 X108.012 Y-13.284
N1162 G01 X108.022 Y-13.287
N1163 G01 X108.032 Y-13.291
N1164 G01 X108.037 Y-13.293
N1165 G01 X108.042 Y-13.296
N1166 G01 X108.045 Y-13.297
N1167 G01 X108.063 Y-13.31
N1168 G01 X108.082 Y-13.323
N1169 G01 X108.09 Y-13.329
N1170 G01 X108.097 Y-13.337
N1171 G01 X108.703 Y-13.943
N1172 G01 X108.705 Y-13.944
N1173 G01 X109.734
N1174 G01 X109.736
N1175 G01 X110.462 Y-13.218
N1176 G01 X110.464 Y-13.215
N1177 G01 Y-12.186
N1178 G01 X110.463 Y-12.183
N1179 G01 X109.736 Y-11.457
N1180 G01 X109.734 Y-11.456
N1181 G01 X109.614
N1182 G01 X109.604
N1183 G01 X109.594 Y-11.455
N1184 G01 X109.584 Y-11.454
N1185 G01 X109.574 Y-11.452
N1186 G01 X109.555 Y-11.448
N1187 G01 X109.545 Y-11.446
N1188 G01 X109.535 Y-11.443
N1189 G01 X109.525 Y-11.439
N1190 G01 X109.52 Y-11.436
N1191 G01 X109.515 Y-11.434
N1192 G01 X109.504 Y-11.427
N1193 G01 X109.475 Y-11.407
N1194 G01 X109.469 Y-11.403
N1195 G01 X109.463 Y-11.397
N1196 G01 X102.6 Y-4.534
N1197 G01 X102.599 Y-4.533
N1198 G01 X102.365 Y-4.436
N1199 G01 X102.362
N1200 G01 X30.987
N1201 G01 X30.985
N1202 G01 X30.75 Y-4.534
N1203 G01 X30.748 Y-4.536
N1204 G01 X25.258 Y-10.026
N1205 G01 X25.253 Y-10.03
N1206 G01 X25.249 Y-10.034
N1207 G01 X25.245 Y-10.037
N1208 G01 X25.225 Y-10.051
N1209 G01 X25.206 Y-10.063
N1210 G01 X25.2 Y-10.067
N1211 G01 X25.193 Y-10.07
N1212 G01 X25.187 Y-10.072
N1213 G01 X25.181 Y-10.074
N1214 G01 X25.174 Y-10.076
N1215 G01 X25.166 Y-10.078
N1216 G01 X25.146 Y-10.082
N1217 G01 X25.136 Y-10.084
N1218 G01 X25.126 Y-10.085
N1219 G01 X25.116 Y-10.086
N1220 G01 X25.106
N1221 G01 X24.843
N1222 G01 X24.841 Y-10.088
N1223 G01 X24.735 Y-10.194
N1224 G01 X24.728 Y-10.201
N1225 G01 X24.724 Y-10.205
N1226 G01 X24.717 Y-10.21
N1227 G01 X24.708 Y-10.216
N1228 G01 X24.688 Y-10.23
N1229 G01 X24.682 Y-10.233
N1230 G01 X24.674 Y-10.238
N1231 G01 X24.665 Y-10.242
N1232 G01 X24.657 Y-10.245
N1233 G01 X24.648 Y-10.248
N1234 G01 X24.608 Y-10.256
N1235 G01 X24.599 Y-10.257
N1236 G01 X24.589 Y-10.258
N1237 G01 X24.579 Y-10.257
N1238 G01 X24.569 Y-10.256
N1239 G01 X24.529 Y-10.248
N1240 G01 X24.52 Y-10.246
N1241 G01 X24.511 Y-10.242
N1242 G01 X24.501 Y-10.238
N1243 G01 X24.492 Y-10.233
N1244 G01 X24.489 Y-10.231
N1245 G01 X24.469 Y-10.218
N1246 G01 X24.459 Y-10.211
N1247 G01 X24.455 Y-10.208
N1248 G01 X24.449 Y-10.203
N1249 G01 X24.44 Y-10.194
N1250 G01 X22.59 Y-8.344
N1251 G01 X22.354 Y-8.246
N1252 G01 X22.352
N1253 G01 X16.384
N1254 G01 X16.381
N1255 G01 X16.147 Y-8.343
N1256 G01 X16.145 Y-8.344
N1257 G01 X14.695 Y-9.794
N1258 G01 X14.694 Y-9.796
N1259 G01 X14.597 Y-10.029
N1260 G01 X14.596 Y-10.032
N1261 G01 Y-20.818
N1262 G01 X14.595 Y-20.828
N1263 G01 X14.594 Y-20.838
N1264 G01 X14.59 Y-20.858
N1265 G01 X14.586 Y-20.878
N1266 G01 X14.583 Y-20.888
N1267 G01 X14.579 Y-20.897
N1268 G01 X14.577 Y-20.901
N1269 G01 X14.573 Y-20.91
N1270 G01 X14.567 Y-20.919
N1271 G01 X14.554 Y-20.937
N1272 G01 X14.547 Y-20.948
N1273 G01 X14.542 Y-20.953
N1274 G01 X14.538 Y-20.959
N1275 G01 X14.532 Y-20.964
N1276 G01 X14.527 Y-20.969
N1277 G01 X14.521 Y-20.973
N1278 G01 X14.515 Y-20.977
N1279 G01 X14.498 Y-20.988
N1280 G01 X14.488 Y-20.995
N1281 G01 X14.483 Y-20.998
N1282 G01 X14.478 Y-21.
N1283 G01 X14.468 Y-21.005
N1284 G01 X14.458 Y-21.008
N1285 G01 X14.448 Y-21.011
N1286 G01 X14.438 Y-21.013
N1287 G01 X14.414 Y-21.017
N1288 G01 X14.405 Y-21.018
N1289 G01 X14.396 Y-21.019
N1290 G01 X14.387
N1291 G01 X14.378 Y-21.018
N1292 G01 X14.369 Y-21.017
N1293 G01 X14.339 Y-21.01
N1294 G01 X14.329 Y-21.007
N1295 G01 X14.319 Y-21.004
N1296 G01 X14.309 Y-21.
N1297 G01 X14.304 Y-20.998
N1298 G01 X14.299 Y-20.995
N1299 G01 X14.272 Y-20.977
N1300 G01 X14.266 Y-20.972
N1301 G01 X14.259 Y-20.967
N1302 G01 X14.229 Y-20.937
N1303 G01 X14.042 Y-20.751
N1304 G01 X14.036 Y-20.744
N1305 G01 X14.03 Y-20.738
N1306 G01 X14.025 Y-20.731
N1307 G01 X14.02 Y-20.724
N1308 G01 X14.003 Y-20.699
N1309 G01 X14. Y-20.694
N1310 G01 X13.998 Y-20.689
N1311 G01 X13.993 Y-20.679
N1312 G01 X13.99 Y-20.669
N1313 G01 X13.988 Y-20.659
N1314 G01 X13.98 Y-20.62
N1315 G01 Y-20.619
N1316 G01 X13.979 Y-20.609
N1317 G01 Y-20.599
N1318 G01 Y-13.208
N1319 G01 Y-13.205
N1320 G01 X13.882 Y-12.972
N1321 G01 X13.881 Y-12.97
N1322 G01 X13.476 Y-12.565
N1323 G01 X13.469 Y-12.557
N1324 G01 X13.463 Y-12.549
N1325 G01 X13.457 Y-12.541
N1326 G01 X13.444 Y-12.521
N1327 G01 X13.438 Y-12.511
N1328 G01 X13.435 Y-12.506
N1329 G01 X13.433 Y-12.501
N1330 G01 X13.43 Y-12.493
N1331 G01 X13.427 Y-12.484
N1332 G01 X13.423 Y-12.466
N1333 G01 X13.419 Y-12.442
N1334 G01 X13.417 Y-12.432
N1335 G01 Y-12.422
N1336 G01 Y-12.412
N1337 G01 X13.418 Y-12.402
N1338 G01 X13.422 Y-12.382
N1339 G01 X13.423 Y-12.379
N1340 G01 X13.427 Y-12.36
N1341 G01 X13.43 Y-12.351
N1342 G01 X13.433 Y-12.342
N1343 G01 X13.438 Y-12.332
N1344 G01 X13.441 Y-12.327
N1345 G01 X13.444 Y-12.322
N1346 G01 X13.457 Y-12.302
N1347 G01 X13.463 Y-12.294
N1348 G01 X13.469 Y-12.287
N1349 G01 X13.476 Y-12.279
N1350 G01 X13.767 Y-11.988
N1351 G01 X13.768 Y-11.986
N1352 G01 Y-10.875
N1353 G01 Y-10.873
N1354 G01 X12.981 Y-10.086
N1355 G01 X12.98
N1356 G01 X11.869
N1357 G01 X11.867
N1358 G01 X11.08 Y-10.873
N1359 G01 X11.079 Y-10.875
N1360 G01 Y-11.986
N1361 G01 X11.08 Y-11.987
N1362 G01 X11.865 Y-12.772
N1363 G01 X11.868 Y-12.774
N1364 G01 X11.89
N1365 G01 X11.9
N1366 G01 X11.91 Y-12.775
N1367 G01 X11.92 Y-12.776
N1368 G01 X11.93 Y-12.778
N1369 G01 X11.95 Y-12.782
N1370 G01 X11.96 Y-12.784
N1371 G01 X11.97 Y-12.788
N1372 G01 X11.98 Y-12.792
N1373 G01 X11.985 Y-12.794
N1374 G01 X11.99 Y-12.797
N1375 G01 X12.007 Y-12.808
N1376 G01 X12.025 Y-12.82
N1377 G01 X12.03 Y-12.824
N1378 G01 X12.035 Y-12.827
N1379 G01 X12.039 Y-12.832
N1380 G01 X12.044 Y-12.837
N1381 G01 X12.049 Y-12.842
N1382 G01 X12.052 Y-12.846
N1383 G01 X12.056 Y-12.851
N1384 G01 X12.062 Y-12.86
N1385 G01 X12.072 Y-12.875
N1386 G01 X12.078 Y-12.885
N1387 G01 X12.082 Y-12.892
N1388 G01 X12.085 Y-12.899
N1389 G01 X12.153 Y-13.064
N1390 G01 X12.155 Y-13.066
N1391 G01 X12.627 Y-13.538
N1392 G01 X12.636 Y-13.547
N1393 G01 X12.641 Y-13.554
N1394 G01 X12.645 Y-13.559
N1395 G01 X12.656 Y-13.576
N1396 G01 X12.667 Y-13.591
N1397 G01 X12.67 Y-13.597
N1398 G01 X12.673 Y-13.603
N1399 G01 X12.676 Y-13.61
N1400 G01 X12.678 Y-13.616
N1401 G01 X12.681 Y-13.626
N1402 G01 X12.683 Y-13.636
N1403 G01 X12.687 Y-13.655
N1404 G01 X12.689 Y-13.665
N1405 G01 X12.69 Y-13.675
N1406 G01 X12.691 Y-13.695
N1407 G01 Y-21.082
N1408 G01 Y-21.084
N1409 G01 X12.788 Y-21.319
N1410 G01 X12.789 Y-21.32
N1411 G01 X21.77 Y-30.301
N1412 G00 Z-2.
N1413 G00 X37.168 Y-42.02
N1414 G00 Z-1.
N1415 G01 Z-0.01 F100
N1416 G01 X37.166 Y-42.017 F200
N1417 G01 X37.163 Y-42.012
N1418 G01 X37.16 Y-42.007
N1419 G01 X37.157 Y-42.002
N1420 G01 X37.155 Y-41.997
N1421 G01 X37.151 Y-41.987
N1422 G01 X37.149 Y-41.98
N1423 G01 X37.147 Y-41.974 Z-0.009
N1424 G01 X37.146 Y-41.967
N1425 G01 X37.145 Y-41.961
N1426 G01 Y-41.954
N1427 G01 X37.144 Y-41.947
N1428 G01 Y-41.902
N1429 G01 X37.142 Y-41.901
N1430 G01 X33.684 Z0.027
N1431 G01 X33.644 Y-41.9 Z0.028
N1432 G01 X33.605 Y-41.895
N1433 G01 X33.525 Y-41.885 Z0.029
N1434 G01 X33.507 Y-41.882
N1435 G01 X33.501 Y-41.881
N1436 G01 X33.494 Y-41.88
N1437 G01 X33.485 Y-41.877
N1438 G01 X33.462 Y-41.868
N1439 G01 X33.356 Y-41.824 Z0.031
N1440 G01 X33.346 Y-41.819
N1441 G01 X33.341 Y-41.816
N1442 G01 X33.336 Y-41.813
N1443 G01 X33.326 Y-41.806
N1444 G01 X33.227 Y-41.73 Z0.032
N1445 G01 X33.221 Y-41.725
N1446 G01 X33.214 Y-41.719
N1447 G01 X33.207 Y-41.711 Z0.033
N1448 G01 X21.783 Y-30.288 Z0.2
N1449 G01 X12.906 Y-21.41 F100
N1450 G01 X12.886 Y-21.39
N1451 G01 X12.874 Y-21.375
N1452 G01 X12.813 Y-21.295
N1453 G01 X12.798 Y-21.276
N1454 G01 X12.795 Y-21.271
N1455 G01 X12.792 Y-21.266
N1456 G01 X12.789 Y-21.261
N1457 G01 X12.787 Y-21.256
N1458 G01 X12.786 Y-21.254
N1459 G01 X12.737 Y-21.136
N1460 G01 X12.733 Y-21.126
N1461 G01 X12.731 Y-21.119
N1462 G01 X12.73 Y-21.114
N1463 G01 X12.728 Y-21.105
N1464 G01 X12.727 Y-21.096
N1465 G01 X12.711 Y-20.977
N1466 G01 X12.71 Y-20.967
N1467 G01 X12.709 Y-20.957
N1468 G01 Y-20.937
N1469 G01 Y-13.594
N1470 G01 X12.708 Y-13.593
N1471 G01 X12.269 Y-13.153
N1472 G01 X12.253 Y-13.138
N1473 G01 X12.229 Y-13.107
N1474 G01 X12.189 Y-13.055
N1475 G01 X12.162 Y-13.019
N1476 G01 X12.158 Y-13.013
N1477 G01 X12.155 Y-13.006
N1478 G01 X12.149 Y-12.994
N1479 G01 X12.104 Y-12.885
N1480 G01 X12.1 Y-12.875
N1481 G01 X12.097 Y-12.867
N1482 G01 X12.095 Y-12.86
N1483 G01 X12.093 Y-12.85
N1484 G01 X12.092 Y-12.84
N1485 G01 X12.081 Y-12.757
N1486 G01 X12.078 Y-12.756
N1487 G01 X11.93
N1488 G01 X11.92 Y-12.755
N1489 G01 X11.91
N1490 G01 X11.9 Y-12.753
N1491 G01 X11.89 Y-12.75
N1492 G01 X11.88 Y-12.747
N1493 G01 X11.871 Y-12.742
N1494 G01 X11.868 Y-12.741
N1495 G01 X11.866 Y-12.74
N1496 G01 X11.857 Y-12.735
N1497 G01 X11.849 Y-12.728
N1498 G01 X11.844 Y-12.725
N1499 G01 X11.84 Y-12.721
N1500 G01 X11.831 Y-12.712
N1501 G01 X11.143 Y-12.024
N1502 G01 X11.134 Y-12.015
N1503 G01 X11.13 Y-12.011
N1504 G01 X11.126 Y-12.006
N1505 G01 X11.12 Y-11.997
N1506 G01 X11.114 Y-11.989
N1507 G01 X11.113 Y-11.987
N1508 G01 Y-11.986
N1509 G01 X11.112 Y-11.984
N1510 G01 X11.107 Y-11.974
N1511 G01 X11.104 Y-11.964
N1512 G01 X11.101 Y-11.954
N1513 G01 X11.099 Y-11.944
N1514 G01 X11.098 Y-11.934
N1515 G01 Y-11.924
N1516 G01 Y-10.95
N1517 G01 Y-10.93
N1518 G01 X11.099 Y-10.92
N1519 G01 X11.1 Y-10.91
N1520 G01 X11.103 Y-10.9
N1521 G01 X11.106 Y-10.89
N1522 G01 X11.11 Y-10.88
N1523 G01 X11.112 Y-10.875
N1524 G01 X11.114 Y-10.873
N1525 G01 Y-10.871
N1526 G01 X11.115 Y-10.87
N1527 G01 X11.118 Y-10.865
N1528 G01 X11.121 Y-10.86
N1529 G01 X11.125 Y-10.855
N1530 G01 X11.129 Y-10.85
N1531 G01 X11.149 Y-10.83
N1532 G01 X11.831 Y-10.148
N1533 G01 X11.842 Y-10.137
N1534 G01 X11.851 Y-10.13
N1535 G01 X11.856 Y-10.126
N1536 G01 X11.861 Y-10.123
N1537 G01 X11.866 Y-10.12
N1538 G01 X11.871 Y-10.118
N1539 G01 X11.879 Y-10.114
N1540 G01 X11.886 Y-10.111
N1541 G01 X11.894 Y-10.109
N1542 G01 X11.902 Y-10.107
N1543 G01 X11.91 Y-10.105
N1544 G01 X11.92 Y-10.104
N1545 G01 X11.93
N1546 G01 X12.906
N1547 G01 X12.925
N1548 G01 X12.935 Y-10.105
N1549 G01 X12.945 Y-10.107
N1550 G01 X12.954 Y-10.109
N1551 G01 X12.962 Y-10.111
N1552 G01 X12.969 Y-10.114
N1553 G01 X12.977 Y-10.118
N1554 G01 X12.985 Y-10.122
N1555 G01 X12.993 Y-10.127
N1556 G01 X13.002 Y-10.134
N1557 G01 X13.022 Y-10.154
N1558 G01 X13.711 Y-10.842
N1559 G01 X13.717 Y-10.849
N1560 G01 X13.721 Y-10.854
N1561 G01 X13.727 Y-10.862
N1562 G01 X13.733 Y-10.87
N1563 G01 X13.737 Y-10.879
N1564 G01 X13.741 Y-10.889
N1565 G01 X13.743 Y-10.894
N1566 G01 X13.746 Y-10.902
N1567 G01 X13.747 Y-10.91
N1568 G01 X13.749 Y-10.92
N1569 G01 Y-10.93
N1570 G01 Y-10.95
N1571 G01 Y-11.924
N1572 G01 Y-11.934
N1573 G01 X13.748 Y-11.944
N1574 G01 X13.747 Y-11.951
N1575 G01 X13.746 Y-11.958
N1576 G01 X13.744 Y-11.965
N1577 G01 X13.741 Y-11.971
N1578 G01 X13.739 Y-11.978
N1579 G01 X13.736 Y-11.984
N1580 G01 X13.733 Y-11.989
N1581 G01 X13.73 Y-11.994
N1582 G01 X13.727 Y-11.999
N1583 G01 X13.723 Y-12.004
N1584 G01 X13.718 Y-12.01
N1585 G01 X13.712 Y-12.016
N1586 G01 X13.327 Y-12.401
N1587 G01 X13.326 Y-12.404
N1588 G01 Y-12.44
N1589 G01 X13.327 Y-12.442
N1590 G01 X13.744 Y-12.86
N1591 G01 X13.781 Y-12.897
N1592 G01 X13.784 Y-12.899
N1593 G01 X13.815 Y-12.939
N1594 G01 X13.868 Y-13.009
N1595 G01 X13.872 Y-13.014
N1596 G01 X13.875 Y-13.019
N1597 G01 X13.878 Y-13.024
N1598 G01 X13.88 Y-13.029
N1599 G01 X13.885 Y-13.039
N1600 G01 X13.934 Y-13.158
N1601 G01 X13.938 Y-13.168
N1602 G01 X13.94 Y-13.178
N1603 G01 X13.941
N1604 G01 X13.942 Y-13.188
N1605 G01 X13.946 Y-13.218
N1606 G01 X13.959 Y-13.317
N1607 G01 X13.96 Y-13.327
N1608 G01 X13.961 Y-13.337
N1609 G01 Y-20.694
N1610 G01 Y-20.696
N1611 G01 X33.914 Y-40.649
N1612 G01 X33.916
N1613 G01 X37.142
N1614 G01 X37.144 Y-40.647
N1615 G01 Y-39.958
N1616 G01 X37.145 Y-39.938
N1617 G01 X37.146 Y-39.928
N1618 G01 X37.147 Y-39.919
N1619 G01 X37.148 Y-39.918
N1620 G01 X37.15 Y-39.908
N1621 G01 X37.154 Y-39.898
N1622 G01 X37.159 Y-39.888
N1623 G01 X37.161 Y-39.883
N1624 G01 X37.164 Y-39.878
N1625 G01 X37.168 Y-39.873
N1626 G01 X37.172 Y-39.868
N1627 G01 X37.179 Y-39.86
N1628 G01 X37.183 Y-39.856
N1629 G01 X37.187 Y-39.852
N1630 G01 X37.192 Y-39.848
N1631 G01 X37.196 Y-39.844
N1632 G01 X37.206 Y-39.838
N1633 G01 X37.208 Y-39.837
N1634 G01 X37.209 Y-39.836
N1635 G01 X37.211 Y-39.835
N1636 G01 X37.219 Y-39.831
N1637 G01 X37.227 Y-39.828
N1638 G01 X37.237 Y-39.825
N1639 G01 X37.247 Y-39.823
N1640 G01 X37.257 Y-39.821
N1641 G01 X37.267
N1642 G01 X37.307
N1643 G01 X39.257
N1644 G01 X39.277
N1645 G01 X39.287 Y-39.822
N1646 G01 X39.297 Y-39.823
N1647 G01 X39.307 Y-39.826
N1648 G01 X39.317 Y-39.83
N1649 G01 X39.327 Y-39.834
N1650 G01 X39.329 Y-39.835
N1651 G01 X39.332 Y-39.837
N1652 G01 X39.334 Y-39.838
N1653 G01 X39.337 Y-39.84
N1654 G01 X39.342 Y-39.843
N1655 G01 X39.346 Y-39.846
N1656 G01 X39.351 Y-39.85
N1657 G01 X39.356 Y-39.855
N1658 G01 X39.362 Y-39.861
N1659 G01 X39.367 Y-39.866
N1660 G01 X39.372 Y-39.872
N1661 G01 X39.376 Y-39.878
N1662 G01 X39.377 Y-39.88
N1663 G01 X39.379 Y-39.883
N1664 G01 X39.38 Y-39.886
N1665 G01 X39.381 Y-39.888
N1666 G01 X39.386 Y-39.898
N1667 G01 X39.39 Y-39.908
N1668 G01 X39.392 Y-39.918
N1669 G01 X39.394 Y-39.928
N1670 G01 X39.395 Y-39.938
N1671 G01 X39.396 Y-39.958
N1672 G01 Y-41.947
N1673 G01 X39.395 Y-41.957
N1674 G01 X39.394 Y-41.967
N1675 G01 X39.392 Y-41.977
N1676 G01 X39.389 Y-41.987
N1677 G01 X39.385 Y-41.996
N1678 G01 X39.381 Y-42.005
N1679 G01 X39.38 Y-42.006
N1680 G01 Y-42.008
N1681 G01 X39.378 Y-42.01
N1682 G01 X39.377 Y-42.013
N1683 G01 X39.372 Y-42.02
N1684 G01 X39.366 Y-42.027
N1685 G01 X39.362 Y-42.031
N1686 G01 X39.358 Y-42.036
N1687 G01 X39.352 Y-42.041
N1688 G01 X39.349 Y-42.044
N1689 G01 X39.343 Y-42.049
N1690 G01 X39.337 Y-42.053
N1691 G01 X39.329 Y-42.057
N1692 G01 X39.321 Y-42.061
N1693 G01 X39.314 Y-42.064
N1694 G01 X39.306 Y-42.067
N1695 G01 X39.297 Y-42.069
N1696 G01 X39.287 Y-42.071
N1697 G01 X39.277 Y-42.072
N1698 G01 X39.257
N1699 G01 X37.307
N1700 G01 X37.267
N1701 G01 X37.259 Y-42.071
N1702 G01 X37.251 Y-42.07
N1703 G01 X37.242 Y-42.069
N1704 G01 X37.234 Y-42.067
N1705 G01 X37.227 Y-42.064
N1706 G01 X37.217 Y-42.06
N1707 G01 X37.212 Y-42.058
N1708 G01 X37.207 Y-42.055
N1709 G01 X37.202 Y-42.052
N1710 G01 X37.197 Y-42.049
N1711 G01 X37.192 Y-42.045
N1712 G01 X37.187 Y-42.041
N1713 G01 X37.18 Y-42.034
N1714 G01 X37.174 Y-42.027
N1715 G01 X37.17 Y-42.022
N1716 G01 X37.166 Y-42.017
N1717 G01 X37.163 Y-42.012
N1718 G01 X37.16 Y-42.007
N1719 G01 X37.157 Y-42.002
N1720 G01 X37.155 Y-41.997
N1721 G01 X37.151 Y-41.987
N1722 G01 X37.149 Y-41.98
N1723 G01 X37.147 Y-41.974
N1724 G01 X37.146 Y-41.967
N1725 G01 X37.145 Y-41.961
N1726 G01 Y-41.954
N1727 G01 X37.144 Y-41.947
N1728 G01 Y-41.902
N1729 G01 X37.142 Y-41.901
N1730 G01 X33.684
N1731 G01 X33.644 Y-41.9
N1732 G01 X33.605 Y-41.895
N1733 G01 X33.525 Y-41.885
N1734 G01 X33.507 Y-41.882
N1735 G01 X33.501 Y-41.881
N1736 G01 X33.494 Y-41.88
N1737 G01 X33.485 Y-41.877
N1738 G01 X33.462 Y-41.868
N1739 G01 X33.356 Y-41.824
N1740 G01 X33.346 Y-41.819
N1741 G01 X33.341 Y-41.816
N1742 G01 X33.336 Y-41.813
N1743 G01 X33.326 Y-41.806
N1744 G01 X33.227 Y-41.73
N1745 G01 X33.221 Y-41.725
N1746 G01 X33.214 Y-41.719
N1747 G01 X33.207 Y-41.711
N1748 G01 X21.783 Y-30.288
N1749 G00 Z-2.
N1750 G00 X15.866 Y-11.199
N1751 G00 Z-1.
N1752 G01 Z-0.01 F100
N1753 G01 Y-20.694 Z0.022 F200
N1754 G01 Y-20.696
N1755 G01 X31.374 Y-36.204 Z0.097
N1756 G01 X31.376
N1757 G01 X32.124 Z0.099
N1758 G01 X32.127 Y-36.203
N1759 G01 X32.57 Y-35.76 Z0.101
N1760 G01 X32.581 Y-35.749
N1761 G01 X32.587 Y-35.744
N1762 G01 X32.592 Y-35.74
N1763 G01 X32.689 Y-35.666 Z0.102
N1764 G01 X32.696 Y-35.66
N1765 G01 X32.704 Y-35.655
N1766 G01 X32.713 Y-35.65
N1767 G01 X32.729 Y-35.643
N1768 G01 X32.809 Y-35.61
N1769 G01 X32.848 Y-35.594
N1770 G01 X32.858 Y-35.591 Z0.103
N1771 G01 X32.868 Y-35.588
N1772 G01 X32.888 Y-35.586
N1773 G01 X32.968 Y-35.575
N1774 G01 X33.008 Y-35.57
N1775 G01 X33.018 Y-35.569
N1776 G01 X33.027
N1777 G01 X37.142 Z0.117
N1778 G01 X37.144 Y-35.568
N1779 G01 Y-35.461
N1780 G01 X37.145 Y-35.443
N1781 G01 Y-35.435 Z0.118
N1782 G01 X37.147 Y-35.427
N1783 G01 Y-35.424
N1784 G01 X37.148 Y-35.421
N1785 G01 X37.151 Y-35.412
N1786 G01 X37.155 Y-35.402
N1787 G01 X37.157 Y-35.397
N1788 G01 X37.16 Y-35.392
N1789 G01 X37.163 Y-35.387
N1790 G01 X37.166 Y-35.382
N1791 G01 X37.171 Y-35.374
N1792 G01 X37.178 Y-35.367
N1793 G01 X37.187 Y-35.357
N1794 G01 X37.759 Y-34.785 Z0.121
N1795 G01 X37.769 Y-34.775
N1796 G01 X37.777 Y-34.768
N1797 G01 X37.784 Y-34.763
N1798 G01 X37.789 Y-34.76
N1799 G01 X37.794 Y-34.757
N1800 G01 X37.803 Y-34.752
N1801 G01 X37.813 Y-34.748
N1802 G01 X37.823 Y-34.745
N1803 G01 X37.824
N1804 G01 X37.834 Y-34.742
N1805 G01 X37.844 Y-34.741
N1806 G01 X37.854
N1807 G01 X37.864
N1808 G01 X38.68 Z0.124
N1809 G01 X38.69
N1810 G01 X38.7 Y-34.742
N1811 G01 X38.709 Y-34.743
N1812 G01 X38.717 Y-34.745
N1813 G01 X38.723 Y-34.747
N1814 G01 X38.729 Y-34.749
N1815 G01 X38.734 Y-34.751
N1816 G01 X38.74 Y-34.753
N1817 G01 X38.749 Y-34.759
N1818 G01 X38.754 Y-34.761
N1819 G01 X38.758 Y-34.765
N1820 G01 X38.764 Y-34.769
N1821 G01 X38.771 Y-34.775
N1822 G01 X38.779 Y-34.784
N1823 G01 X39.359 Y-35.363 Z0.127
N1824 G01 X39.363 Y-35.368
N1825 G01 X39.367 Y-35.372
N1826 G01 X39.371 Y-35.377
N1827 G01 X39.374 Y-35.382
N1828 G01 X39.377 Y-35.385
N1829 G01 X39.38 Y-35.392
N1830 G01 X39.382 Y-35.394
N1831 G01 X39.383 Y-35.397
N1832 G01 X39.385 Y-35.402
N1833 G01 X39.389 Y-35.412
N1834 G01 X39.392 Y-35.421
N1835 G01 X39.394 Y-35.431
N1836 G01 X39.395 Y-35.441
N1837 G01 X39.396 Y-35.461
N1838 G01 Y-36.277 Z0.13
N1839 G01 Y-36.287
N1840 G01 X39.395 Y-36.297
N1841 G01 X39.393 Y-36.307
N1842 G01 X39.39 Y-36.317
N1843 G01 X39.387 Y-36.327
N1844 G01 X39.382 Y-36.337
N1845 G01 X39.381 Y-36.339
N1846 G01 X39.38 Y-36.341
N1847 G01 X39.378 Y-36.344
N1848 G01 X39.377 Y-36.347
N1849 G01 X39.372 Y-36.354
N1850 G01 X39.366 Y-36.362
N1851 G01 X39.352 Y-36.376
N1852 G01 X38.779 Y-36.949 Z0.133
N1853 G01 X38.772 Y-36.956
N1854 G01 X38.765 Y-36.963
N1855 G01 X38.757 Y-36.968
N1856 G01 X38.75 Y-36.973
N1857 G01 X38.745 Y-36.976
N1858 G01 X38.74 Y-36.979
N1859 G01 X38.73 Y-36.983
N1860 G01 X38.72 Y-36.987
N1861 G01 X38.71 Y-36.989
N1862 G01 X38.7 Y-36.991
N1863 G01 X38.69 Y-36.992 Z0.134
N1864 G01 X38.68
N1865 G01 X37.864 Z0.136
N1866 G01 X37.854
N1867 G01 X37.844 Y-36.991
N1868 G01 X37.834 Y-36.99
N1869 G01 X37.824 Y-36.988
N1870 G01 X37.816 Y-36.985
N1871 G01 X37.807 Y-36.982 Z0.137
N1872 G01 X37.799 Y-36.978
N1873 G01 X37.79 Y-36.973
N1874 G01 X37.784 Y-36.97
N1875 G01 X37.775 Y-36.963
N1876 G01 X37.771 Y-36.959
N1877 G01 X37.767 Y-36.955
N1878 G01 X37.635 Y-36.823
N1879 G01 X37.633 Y-36.821
N1880 G01 X33.281 Z0.152
N1881 G01 X33.279
N1882 G01 X32.848 Y-37.252 Z0.154
N1883 G01 X32.826 Y-37.273
N1884 G01 X32.822 Y-37.278
N1885 G01 X32.817 Y-37.281
N1886 G01 X32.809 Y-37.288
N1887 G01 X32.714 Y-37.361 Z0.155
N1888 G01 X32.706 Y-37.366
N1889 G01 X32.699 Y-37.371
N1890 G01 X32.689 Y-37.376
N1891 G01 X32.649 Y-37.393
N1892 G01 X32.57 Y-37.426
N1893 G01 X32.56 Y-37.43
N1894 G01 X32.55 Y-37.434
N1895 G01 X32.54 Y-37.436
N1896 G01 X32.53 Y-37.438
N1897 G01 X32.41 Y-37.453 Z0.156
N1898 G01 X32.391 Y-37.456
N1899 G01 X32.371
N1900 G01 X31.117 Z0.16
N1901 G01 X31.107 Y-37.455
N1902 G01 X31.097 Y-37.454
N1903 G01 X30.977 Y-37.439 Z0.161
N1904 G01 X30.967 Y-37.437
N1905 G01 X30.958 Y-37.435
N1906 G01 X30.948 Y-37.433
N1907 G01 X30.938 Y-37.429
N1908 G01 X30.818 Y-37.38
N1909 G01 X30.81 Y-37.376
N1910 G01 X30.801 Y-37.371
N1911 G01 X30.795 Y-37.368
N1912 G01 X30.79 Y-37.364
N1913 G01 X30.778 Y-37.355
N1914 G01 X30.696 Y-37.292 Z0.162
N1915 G01 X30.677 Y-37.277
N1916 G01 X30.659 Y-37.259
N1917 G01 X22.735 Y-29.335 Z0.2
N1918 G01 X14.815 Y-21.415 F100
N1919 G01 X14.795 Y-21.395
N1920 G01 X14.791 Y-21.39
N1921 G01 X14.787 Y-21.385
N1922 G01 X14.718 Y-21.295
N1923 G01 X14.706 Y-21.28
N1924 G01 X14.701 Y-21.273
N1925 G01 X14.697 Y-21.265
N1926 G01 X14.692 Y-21.256
N1927 G01 X14.675 Y-21.216
N1928 G01 X14.642 Y-21.136
N1929 G01 X14.639 Y-21.126
N1930 G01 X14.635 Y-21.116
N1931 G01 X14.633 Y-21.106
N1932 G01 X14.632 Y-21.096
N1933 G01 X14.617 Y-20.985
N1934 G01 X14.616 Y-20.977
N1935 G01 X14.615 Y-20.967
N1936 G01 X14.614 Y-20.957
N1937 G01 Y-20.937
N1938 G01 Y-10.194
N1939 G01 Y-10.154
N1940 G01 X14.617 Y-10.13
N1941 G01 X14.632 Y-10.014
N1942 G01 X14.634 Y-10.005
N1943 G01 X14.637 Y-9.995
N1944 G01 X14.64 Y-9.984
N1945 G01 X14.645 Y-9.972
N1946 G01 X14.691 Y-9.862
N1947 G01 X14.694 Y-9.856
N1948 G01 X14.697 Y-9.85
N1949 G01 X14.701 Y-9.843
N1950 G01 X14.706 Y-9.835
N1951 G01 X14.737 Y-9.795
N1952 G01 X14.787 Y-9.73
N1953 G01 X14.793 Y-9.723
N1954 G01 X14.799 Y-9.716
N1955 G01 X16.05 Y-8.465
N1956 G01 X16.073 Y-8.443
N1957 G01 X16.09 Y-8.429
N1958 G01 X16.176 Y-8.363
N1959 G01 X16.189 Y-8.353
N1960 G01 X16.193 Y-8.351
N1961 G01 X16.199 Y-8.347
N1962 G01 X16.204 Y-8.344
N1963 G01 X16.209 Y-8.342
N1964 G01 X16.254 Y-8.323
N1965 G01 X16.329 Y-8.292
N1966 G01 X16.336 Y-8.29
N1967 G01 X16.343 Y-8.287
N1968 G01 X16.35 Y-8.285
N1969 G01 X16.357 Y-8.284
N1970 G01 X16.369 Y-8.282
N1971 G01 X16.488 Y-8.266
N1972 G01 X16.498 Y-8.265
N1973 G01 X16.508 Y-8.264
N1974 G01 X16.528
N1975 G01 X22.22
N1976 G01 X22.23
N1977 G01 X22.24 Y-8.265
N1978 G01 X22.26 Y-8.268
N1979 G01 X22.359 Y-8.281
N1980 G01 X22.378 Y-8.284
N1981 G01 X22.379
N1982 G01 X22.389 Y-8.286
N1983 G01 X22.399 Y-8.29
N1984 G01 X22.419 Y-8.298
N1985 G01 X22.519 Y-8.339
N1986 G01 X22.529 Y-8.343
N1987 G01 X22.534 Y-8.346
N1988 G01 X22.539 Y-8.349
N1989 G01 X22.544 Y-8.352
N1990 G01 X22.549 Y-8.355
N1991 G01 X22.559 Y-8.363
N1992 G01 X22.618 Y-8.408
N1993 G01 X22.658 Y-8.439
N1994 G01 X22.662 Y-8.443
N1995 G01 X22.698 Y-8.478
N1996 G01 X24.588 Y-10.368
N1997 G01 X24.808 Y-10.148
N1998 G01 X24.819 Y-10.137
N1999 G01 X24.823 Y-10.133
N2000 G01 X24.827 Y-10.13
N2001 G01 X24.832 Y-10.126
N2002 G01 X24.837 Y-10.123
N2003 G01 X24.842 Y-10.12
N2004 G01 X24.847 Y-10.117
N2005 G01 X24.855 Y-10.114
N2006 G01 X24.863 Y-10.111
N2007 G01 X24.871 Y-10.108
N2008 G01 X24.879 Y-10.107
N2009 G01 X24.887 Y-10.105
N2010 G01 X24.897 Y-10.104
N2011 G01 X24.907
N2012 G01 X25.206
N2013 G01 X25.207 Y-10.103
N2014 G01 X30.659 Y-4.651
N2015 G01 X30.675 Y-4.636
N2016 G01 X30.682 Y-4.629
N2017 G01 X30.69 Y-4.623
N2018 G01 X30.778 Y-4.555
N2019 G01 X30.794 Y-4.543
N2020 G01 X30.8 Y-4.539
N2021 G01 X30.806 Y-4.536
N2022 G01 X30.812 Y-4.533
N2023 G01 X30.818 Y-4.53
N2024 G01 X30.938 Y-4.481
N2025 G01 X30.948 Y-4.477
N2026 G01 X30.958 Y-4.475
N2027 G01 X30.967 Y-4.473
N2028 G01 X30.977 Y-4.471
N2029 G01 X31.097 Y-4.456
N2030 G01 X31.107 Y-4.455
N2031 G01 X31.117 Y-4.454
N2032 G01 X102.23
N2033 G01 X102.27 Y-4.456
N2034 G01 X102.28 Y-4.457
N2035 G01 X102.29 Y-4.459
N2036 G01 X102.389 Y-4.476
N2037 G01 X102.409 Y-4.48
N2038 G01 X102.419 Y-4.483
N2039 G01 X102.429 Y-4.486
N2040 G01 X102.469 Y-4.504
N2041 G01 X102.509 Y-4.522
N2042 G01 X102.549 Y-4.539
N2043 G01 X102.556 Y-4.543
N2044 G01 X102.564 Y-4.548
N2045 G01 X102.572 Y-4.554
N2046 G01 X102.66 Y-4.623
N2047 G01 X102.668 Y-4.629
N2048 G01 X102.675 Y-4.636
N2049 G01 X102.683 Y-4.643
N2050 G01 X109.513 Y-11.473
N2051 G01 X109.515 Y-11.474
N2052 G01 X109.674
N2053 G01 X109.684 Y-11.475
N2054 G01 X109.694 Y-11.476
N2055 G01 X109.704 Y-11.478
N2056 G01 X109.714 Y-11.48
N2057 G01 X109.724 Y-11.484
N2058 G01 X109.734 Y-11.489
N2059 G01 X109.743 Y-11.494
N2060 G01 X109.749 Y-11.498
N2061 G01 X109.754 Y-11.501
N2062 G01 X109.76 Y-11.507
N2063 G01 X109.793 Y-11.54
N2064 G01 X110.397 Y-12.143
N2065 G01 X110.416 Y-12.163
N2066 G01 X110.42 Y-12.168
N2067 G01 X110.424 Y-12.173
N2068 G01 X110.427 Y-12.178
N2069 G01 X110.43 Y-12.183
N2070 G01 Y-12.184
N2071 G01 X110.431 Y-12.186
N2072 G01 X110.432 Y-12.188
N2073 G01 X110.435 Y-12.193
N2074 G01 X110.439 Y-12.203
N2075 G01 X110.442 Y-12.213
N2076 G01 X110.444 Y-12.223
N2077 G01 X110.445 Y-12.233
N2078 G01 X110.446 Y-12.243
N2079 G01 Y-12.263
N2080 G01 Y-13.138
N2081 G01 Y-13.158
N2082 G01 X110.445 Y-13.168
N2083 G01 X110.444 Y-13.178
N2084 G01 X110.441 Y-13.188
N2085 G01 X110.438 Y-13.198
N2086 G01 X110.434 Y-13.208
N2087 G01 X110.432 Y-13.213
N2088 G01 X110.431 Y-13.215
N2089 G01 X110.43 Y-13.216
N2090 G01 X110.429 Y-13.218
N2091 G01 X110.426 Y-13.223
N2092 G01 X110.423 Y-13.228
N2093 G01 X110.419 Y-13.233
N2094 G01 X110.415 Y-13.238
N2095 G01 X110.396 Y-13.257
N2096 G01 X109.793 Y-13.86
N2097 G01 X109.759 Y-13.894
N2098 G01 X109.754 Y-13.899
N2099 G01 X109.748 Y-13.903
N2100 G01 X109.742 Y-13.907
N2101 G01 X109.734 Y-13.911
N2102 G01 X109.724 Y-13.916
N2103 G01 X109.714 Y-13.92
N2104 G01 X109.704 Y-13.922
N2105 G01 X109.694 Y-13.924
N2106 G01 X109.684 Y-13.925
N2107 G01 X109.674 Y-13.926
N2108 G01 X108.798
N2109 G01 X108.758
N2110 G01 X108.749 Y-13.925
N2111 G01 X108.739 Y-13.923
N2112 G01 X108.729 Y-13.92
N2113 G01 X108.719 Y-13.917
N2114 G01 X108.71 Y-13.913
N2115 G01 X108.702 Y-13.909
N2116 G01 X108.697 Y-13.906
N2117 G01 X108.69 Y-13.901
N2118 G01 X108.686 Y-13.898
N2119 G01 X108.681 Y-13.894
N2120 G01 X108.679 Y-13.892
N2121 G01 X108.639 Y-13.852
N2122 G01 X108.042 Y-13.255
N2123 G01 X108.024 Y-13.237
N2124 G01 X108.02 Y-13.232
N2125 G01 X108.017 Y-13.227
N2126 G01 X108.014 Y-13.222
N2127 G01 X108.011 Y-13.218
N2128 G01 X108.006 Y-13.208
N2129 G01 X108.002 Y-13.199
N2130 G01 X108. Y-13.194
N2131 G01 X107.999 Y-13.189
N2132 G01 X107.996 Y-13.178
N2133 G01 X107.995 Y-13.168
N2134 G01 X107.994 Y-13.158
N2135 G01 Y-13.138
N2136 G01 Y-12.263
N2137 G01 Y-12.243
N2138 G01 X107.995 Y-12.233
N2139 G01 X107.996 Y-12.223
N2140 G01 X107.997 Y-12.217
N2141 G01 X107.999 Y-12.212
N2142 G01 X108. Y-12.206
N2143 G01 X108.002 Y-12.201
N2144 G01 X108.006 Y-12.192
N2145 G01 X108.01 Y-12.183
N2146 G01 X108.013 Y-12.178
N2147 G01 X108.016 Y-12.174
N2148 G01 X108.02 Y-12.169
N2149 G01 X108.023 Y-12.164
N2150 G01 X108.028 Y-12.159
N2151 G01 X108.032 Y-12.154
N2152 G01 X108.227 Y-11.959
N2153 G01 Y-11.957
N2154 G01 X101.977 Y-5.706
N2155 G01 X101.974
N2156 G01 X31.376
N2157 G01 X31.373
N2158 G01 X26.464 Y-10.616
N2159 G01 X26.463 Y-10.618
N2160 G01 X26.688 Y-10.843
N2161 G01 X26.694 Y-10.849
N2162 G01 X26.698 Y-10.854
N2163 G01 X26.704 Y-10.862
N2164 G01 X26.709 Y-10.87
N2165 G01 X26.712 Y-10.875
N2166 G01 X26.714 Y-10.88
N2167 G01 X26.718 Y-10.89
N2168 G01 X26.721 Y-10.9
N2169 G01 X26.724 Y-10.91
N2170 G01 X26.725 Y-10.92
N2171 G01 X26.726 Y-10.93
N2172 G01 Y-10.95
N2173 G01 Y-11.924
N2174 G01 X26.725 Y-11.934
N2175 G01 X26.724 Y-11.944
N2176 G01 X26.723 Y-11.951
N2177 G01 X26.722 Y-11.957
N2178 G01 X26.72 Y-11.963
N2179 G01 X26.718 Y-11.97
N2180 G01 X26.715 Y-11.977
N2181 G01 X26.712 Y-11.984
N2182 G01 X26.709 Y-11.989
N2183 G01 X26.706 Y-11.994
N2184 G01 X26.703 Y-11.999
N2185 G01 X26.7 Y-12.004
N2186 G01 X26.695 Y-12.01
N2187 G01 X26.689 Y-12.016
N2188 G01 X26.002 Y-12.703
N2189 G01 X25.981 Y-12.723
N2190 G01 X25.977 Y-12.727
N2191 G01 X25.972 Y-12.731
N2192 G01 X25.967 Y-12.735
N2193 G01 X25.962 Y-12.738
N2194 G01 X25.957 Y-12.74
N2195 G01 X25.956 Y-12.741
N2196 G01 X25.952 Y-12.743
N2197 G01 X25.942 Y-12.747
N2198 G01 X25.932 Y-12.751
N2199 G01 X25.922 Y-12.753
N2200 G01 X25.912 Y-12.755
N2201 G01 X25.902 Y-12.756
N2202 G01 X25.882
N2203 G01 X24.907
N2204 G01 X24.897
N2205 G01 X24.887 Y-12.755
N2206 G01 X24.877 Y-12.753
N2207 G01 X24.867 Y-12.75
N2208 G01 X24.857 Y-12.747
N2209 G01 X24.847 Y-12.743
N2210 G01 X24.844 Y-12.741
N2211 G01 X24.843 Y-12.74
N2212 G01 X24.834 Y-12.735
N2213 G01 X24.825 Y-12.729
N2214 G01 X24.821 Y-12.725
N2215 G01 X24.816 Y-12.721
N2216 G01 X24.808 Y-12.712
N2217 G01 X24.111 Y-12.015
N2218 G01 X24.107 Y-12.011
N2219 G01 X24.103 Y-12.007
N2220 G01 X24.096 Y-11.998
N2221 G01 X24.091 Y-11.99
N2222 G01 X24.09 Y-11.988
N2223 G01 X24.089 Y-11.986
N2224 G01 X24.088 Y-11.984
N2225 G01 X24.084 Y-11.974
N2226 G01 X24.08 Y-11.964
N2227 G01 X24.077 Y-11.954
N2228 G01 X24.076 Y-11.944
N2229 G01 X24.075 Y-11.934
N2230 G01 X24.074 Y-11.924
N2231 G01 Y-11.624
N2232 G01 X24.073 Y-11.623
N2233 G01 X21.967 Y-9.517
N2234 G01 X21.966 Y-9.516
N2235 G01 X16.77
N2236 G01 X16.768 Y-9.517
N2237 G01 X15.867 Y-10.418
N2238 G01 X15.866 Y-10.42
N2239 G01 Y-20.694
N2240 G01 Y-20.696
N2241 G01 X31.374 Y-36.204
N2242 G01 X31.376
N2243 G01 X32.124
N2244 G01 X32.127 Y-36.203
N2245 G01 X32.57 Y-35.76
N2246 G01 X32.581 Y-35.749
N2247 G01 X32.587 Y-35.744
N2248 G01 X32.592 Y-35.74
N2249 G01 X32.689 Y-35.666
N2250 G01 X32.696 Y-35.66
N2251 G01 X32.704 Y-35.655
N2252 G01 X32.713 Y-35.65
N2253 G01 X32.729 Y-35.643
N2254 G01 X32.809 Y-35.61
N2255 G01 X32.848 Y-35.594
N2256 G01 X32.858 Y-35.591
N2257 G01 X32.868 Y-35.588
N2258 G01 X32.888 Y-35.586
N2259 G01 X32.968 Y-35.575
N2260 G01 X33.008 Y-35.57
N2261 G01 X33.018 Y-35.569
N2262 G01 X33.027
N2263 G01 X37.142
N2264 G01 X37.144 Y-35.568
N2265 G01 Y-35.461
N2266 G01 X37.145 Y-35.443
N2267 G01 Y-35.435
N2268 G01 X37.147 Y-35.427
N2269 G01 Y-35.424
N2270 G01 X37.148 Y-35.421
N2271 G01 X37.151 Y-35.412
N2272 G01 X37.155 Y-35.402
N2273 G01 X37.157 Y-35.397
N2274 G01 X37.16 Y-35.392
N2275 G01 X37.163 Y-35.387
N2276 G01 X37.166 Y-35.382
N2277 G01 X37.171 Y-35.374
N2278 G01 X37.178 Y-35.367
N2279 G01 X37.187 Y-35.357
N2280 G01 X37.759 Y-34.785
N2281 G01 X37.769 Y-34.775
N2282 G01 X37.777 Y-34.768
N2283 G01 X37.784 Y-34.763
N2284 G01 X37.789 Y-34.76
N2285 G01 X37.794 Y-34.757
N2286 G01 X37.803 Y-34.752
N2287 G01 X37.813 Y-34.748
N2288 G01 X37.823 Y-34.745
N2289 G01 X37.824
N2290 G01 X37.834 Y-34.742
N2291 G01 X37.844 Y-34.741
N2292 G01 X37.854
N2293 G01 X37.864
N2294 G01 X38.68
N2295 G01 X38.69
N2296 G01 X38.7 Y-34.742
N2297 G01 X38.709 Y-34.743
N2298 G01 X38.717 Y-34.745
N2299 G01 X38.723 Y-34.747
N2300 G01 X38.729 Y-34.749
N2301 G01 X38.734 Y-34.751
N2302 G01 X38.74 Y-34.753
N2303 G01 X38.749 Y-34.759
N2304 G01 X38.754 Y-34.761
N2305 G01 X38.758 Y-34.765
N2306 G01 X38.764 Y-34.769
N2307 G01 X38.771 Y-34.775
N2308 G01 X38.779 Y-34.784
N2309 G01 X39.359 Y-35.363
N2310 G01 X39.363 Y-35.368
N2311 G01 X39.367 Y-35.372
N2312 G01 X39.371 Y-35.377
N2313 G01 X39.374 Y-35.382
N2314 G01 X39.377 Y-35.385
N2315 G01 X39.38 Y-35.392
N2316 G01 X39.382 Y-35.394
N2317 G01 X39.383 Y-35.397
N2318 G01 X39.385 Y-35.402
N2319 G01 X39.389 Y-35.412
N2320 G01 X39.392 Y-35.421
N2321 G01 X39.394 Y-35.431
N2322 G01 X39.395 Y-35.441
N2323 G01 X39.396 Y-35.461
N2324 G01 Y-36.277
N2325 G01 Y-36.287
N2326 G01 X39.395 Y-36.297
N2327 G01 X39.393 Y-36.307
N2328 G01 X39.39 Y-36.317
N2329 G01 X39.387 Y-36.327
N2330 G01 X39.382 Y-36.337
N2331 G01 X39.381 Y-36.339
N2332 G01 X39.38 Y-36.341
N2333 G01 X39.378 Y-36.344
N2334 G01 X39.377 Y-36.347
N2335 G01 X39.372 Y-36.354
N2336 G01 X39.366 Y-36.362
N2337 G01 X39.352 Y-36.376
N2338 G01 X38.779 Y-36.949
N2339 G01 X38.772 Y-36.956
N2340 G01 X38.765 Y-36.963
N2341 G01 X38.757 Y-36.968
N2342 G01 X38.75 Y-36.973
N2343 G01 X38.745 Y-36.976
N2344 G01 X38.74 Y-36.979
N2345 G01 X38.73 Y-36.983
N2346 G01 X38.72 Y-36.987
N2347 G01 X38.71 Y-36.989
N2348 G01 X38.7 Y-36.991
N2349 G01 X38.69 Y-36.992
N2350 G01 X38.68
N2351 G01 X37.864
N2352 G01 X37.854
N2353 G01 X37.844 Y-36.991
N2354 G01 X37.834 Y-36.99
N2355 G01 X37.824 Y-36.988
N2356 G01 X37.816 Y-36.985
N2357 G01 X37.807 Y-36.982
N2358 G01 X37.799 Y-36.978
N2359 G01 X37.79 Y-36.973
N2360 G01 X37.784 Y-36.97
N2361 G01 X37.775 Y-36.963
N2362 G01 X37.771 Y-36.959
N2363 G01 X37.767 Y-36.955
N2364 G01 X37.635 Y-36.823
N2365 G01 X37.633 Y-36.821
N2366 G01 X33.281
N2367 G01 X33.279
N2368 G01 X32.848 Y-37.252
N2369 G01 X32.826 Y-37.273
N2370 G01 X32.822 Y-37.278
N2371 G01 X32.817 Y-37.281
N2372 G01 X32.809 Y-37.288
N2373 G01 X32.714 Y-37.361
N2374 G01 X32.706 Y-37.366
N2375 G01 X32.699 Y-37.371
N2376 G01 X32.689 Y-37.376
N2377 G01 X32.649 Y-37.393
N2378 G01 X32.57 Y-37.426
N2379 G01 X32.56 Y-37.43
N2380 G01 X32.55 Y-37.434
N2381 G01 X32.54 Y-37.436
N2382 G01 X32.53 Y-37.438
N2383 G01 X32.41 Y-37.453
N2384 G01 X32.391 Y-37.456
N2385 G01 X32.371
N2386 G01 X31.117
N2387 G01 X31.107 Y-37.455
N2388 G01 X31.097 Y-37.454
N2389 G01 X30.977 Y-37.439
N2390 G01 X30.967 Y-37.437
N2391 G01 X30.958 Y-37.435
N2392 G01 X30.948 Y-37.433
N2393 G01 X30.938 Y-37.429
N2394 G01 X30.818 Y-37.38
N2395 G01 X30.81 Y-37.376
N2396 G01 X30.801 Y-37.371
N2397 G01 X30.795 Y-37.368
N2398 G01 X30.79 Y-37.364
N2399 G01 X30.778 Y-37.355
N2400 G01 X30.696 Y-37.292
N2401 G01 X30.677 Y-37.277
N2402 G01 X30.659 Y-37.259
N2403 G01 X22.735 Y-29.335
N2404 G00 Z-2.
N2405 G00 X30.772 Y-32.532
N2406 G00 Z-1.
N2407 G01 Z-0.01 F100
N2408 G01 X31.115 Y-32.875 Z-0.002 F200
N2409 G01 X31.122 Y-32.882
N2410 G01 X31.127 Y-32.888 Z-0.001
N2411 G01 X31.137 Y-32.902
N2412 G01 X31.145 Y-32.915
N2413 G01 X31.152 Y-32.925
N2414 G01 X31.155 Y-32.93
N2415 G01 X31.157 Y-32.934
N2416 G01 X31.162 Y-32.944 Z0.
N2417 G01 X31.165 Y-32.954
N2418 G01 X31.168 Y-32.964
N2419 G01 X31.17 Y-32.974
N2420 G01 X31.174 Y-32.994
N2421 G01 X31.176 Y-33.005 Z0.001
N2422 G01 Y-33.015
N2423 G01 X31.177 Y-33.021
N2424 G01 X31.176 Y-33.027
N2425 G01 Y-33.034
N2426 G01 X31.175 Y-33.044
N2427 G01 X31.172 Y-33.054 Z0.002
N2428 G01 X31.168 Y-33.074
N2429 G01 X31.166 Y-33.084
N2430 G01 X31.163 Y-33.094
N2431 G01 X31.159 Y-33.104
N2432 G01 X31.156 Y-33.109
N2433 G01 X31.153 Y-33.114 Z0.003
N2434 G01 X31.137 Y-33.139
N2435 G01 X31.126 Y-33.153
N2436 G01 X31.121 Y-33.159 Z0.004
N2437 G01 X31.115 Y-33.165
N2438 G01 X30.508 Y-33.772 Z0.018
N2439 G01 X30.506 Y-33.776
N2440 G01 Y-34.8 Z0.036
N2441 G01 Y-34.825
N2442 G01 X30.505 Y-34.834
N2443 G01 X30.504 Y-34.844
N2444 G01 X30.5 Y-34.864 Z0.037
N2445 G01 X30.495 Y-34.884
N2446 G01 X30.492 Y-34.894
N2447 G01 X30.488 Y-34.904
N2448 G01 X30.486 Y-34.909
N2449 G01 X30.483 Y-34.914 Z0.038
N2450 G01 X30.477 Y-34.924
N2451 G01 X30.46 Y-34.949
N2452 G01 X30.456 Y-34.954
N2453 G01 X30.452 Y-34.959
N2454 G01 X30.447 Y-34.964 Z0.039
N2455 G01 X30.441 Y-34.97
N2456 G01 X30.437 Y-34.974
N2457 G01 X30.432 Y-34.977
N2458 G01 X30.423 Y-34.984
N2459 G01 X30.4 Y-34.998 Z0.04
N2460 G01 X30.39 Y-35.004
N2461 G01 X30.38 Y-35.009
N2462 G01 X30.37 Y-35.013
N2463 G01 X30.36 Y-35.015
N2464 G01 X30.341 Y-35.019 Z0.041
N2465 G01 X30.326 Y-35.022
N2466 G01 X30.318 Y-35.023
N2467 G01 X30.311 Y-35.024
N2468 G01 X30.301
N2469 G01 X30.292
N2470 G01 X30.284 Y-35.023 Z0.042
N2471 G01 X30.276 Y-35.021
N2472 G01 X30.261 Y-35.018
N2473 G01 X30.241 Y-35.013
N2474 G01 X30.231 Y-35.01 Z0.043
N2475 G01 X30.221 Y-35.006
N2476 G01 X30.212 Y-35.002
N2477 G01 X30.203 Y-34.996
N2478 G01 X30.185 Y-34.984
N2479 G01 X30.181 Y-34.981 Z0.044
N2480 G01 X30.172 Y-34.974
N2481 G01 X30.167 Y-34.971
N2482 G01 X30.162 Y-34.966
N2483 G01 X30.14 Y-34.944
N2484 G01 X23.633 Y-28.437 Z0.2
N2485 G01 X15.95 Y-20.754 F100
N2486 G01 X15.942 Y-20.746
N2487 G01 X15.935 Y-20.738
N2488 G01 X15.931 Y-20.732
N2489 G01 X15.908 Y-20.699
N2490 G01 X15.905 Y-20.694
N2491 G01 X15.903 Y-20.689
N2492 G01 X15.898 Y-20.679
N2493 G01 X15.895 Y-20.669
N2494 G01 X15.893 Y-20.659
N2495 G01 X15.891 Y-20.651
N2496 G01 X15.885 Y-20.619
N2497 G01 X15.884 Y-20.609
N2498 G01 Y-20.599
N2499 G01 Y-12.203
N2500 G01 Y-12.193
N2501 G01 X15.885 Y-12.183
N2502 G01 X15.891 Y-12.154
N2503 G01 X15.893 Y-12.143
N2504 G01 X15.896 Y-12.133
N2505 G01 X15.899 Y-12.123
N2506 G01 X15.903 Y-12.113
N2507 G01 X15.906 Y-12.109
N2508 G01 X15.909 Y-12.104
N2509 G01 X15.931 Y-12.071
N2510 G01 X15.937 Y-12.064
N2511 G01 X15.941 Y-12.059
N2512 G01 X15.945 Y-12.055
N2513 G01 X15.949 Y-12.051
N2514 G01 X15.954 Y-12.047
N2515 G01 X15.962 Y-12.041
N2516 G01 X15.971 Y-12.035
N2517 G01 X15.988 Y-12.024
N2518 G01 X15.999 Y-12.017
N2519 G01 X16.005 Y-12.014
N2520 G01 X16.01 Y-12.012
N2521 G01 X16.02 Y-12.008
N2522 G01 X16.03 Y-12.006
N2523 G01 X16.05 Y-12.002
N2524 G01 X16.07 Y-11.999
N2525 G01 X16.08 Y-11.998
N2526 G01 X16.09 Y-11.997
N2527 G01 X16.1 Y-11.998
N2528 G01 X16.11 Y-11.999
N2529 G01 X16.13 Y-12.003
N2530 G01 X16.15 Y-12.008
N2531 G01 X16.16 Y-12.011
N2532 G01 X16.17 Y-12.015
N2533 G01 X16.178 Y-12.019
N2534 G01 X16.186 Y-12.024
N2535 G01 X16.209 Y-12.04
N2536 G01 X16.22 Y-12.048
N2537 G01 X16.224 Y-12.052
N2538 G01 X16.228 Y-12.055
N2539 G01 X16.249 Y-12.077
N2540 G01 X16.945 Y-12.772
N2541 G01 X16.948 Y-12.774
N2542 G01 X17.483
N2543 G01 X17.503 Y-12.775
N2544 G01 X17.513 Y-12.776
N2545 G01 X17.523 Y-12.778
N2546 G01 X17.549 Y-12.783
N2547 G01 X17.556 Y-12.784
N2548 G01 X17.563 Y-12.786
N2549 G01 X17.573 Y-12.79
N2550 G01 X17.583 Y-12.795
N2551 G01 X17.588 Y-12.798
N2552 G01 X17.593 Y-12.801
N2553 G01 X17.603 Y-12.807
N2554 G01 X17.621 Y-12.82
N2555 G01 X17.626 Y-12.824
N2556 G01 X17.632 Y-12.828
N2557 G01 X17.642 Y-12.839
N2558 G01 X27.85 Y-23.046
N2559 G01 X27.873 Y-23.069
N2560 G01 X27.877 Y-23.073
N2561 G01 X27.88 Y-23.077
N2562 G01 X27.887 Y-23.086
N2563 G01 X27.9 Y-23.106
N2564 G01 X27.906 Y-23.116
N2565 G01 X27.909 Y-23.121
N2566 G01 X27.912 Y-23.126
N2567 G01 Y-23.127
N2568 G01 X27.917 Y-23.137
N2569 G01 X27.92 Y-23.146
N2570 G01 X27.922 Y-23.156
N2571 G01 X27.924 Y-23.166
N2572 G01 X27.928 Y-23.186
N2573 G01 X27.93 Y-23.195
N2574 G01 X27.931 Y-23.205
N2575 G01 Y-23.245
N2576 G01 Y-29.336
N2577 G01 Y-29.338
N2578 G01 X28.028 Y-29.574
N2579 G01 X28.029 Y-29.575
N2580 G01 X30.42 Y-31.966
N2581 G01 X30.453 Y-31.999
N2582 G01 X30.457 Y-32.004
N2583 G01 X30.46 Y-32.009
N2584 G01 X30.48 Y-32.039
N2585 G01 X30.483 Y-32.044
N2586 G01 X30.486 Y-32.049
N2587 G01 X30.491 Y-32.059
N2588 G01 X30.494 Y-32.069
N2589 G01 X30.497 Y-32.079
N2590 G01 X30.5 Y-32.093
N2591 G01 X30.505 Y-32.119
N2592 G01 Y-32.129
N2593 G01 X30.506 Y-32.139
N2594 G01 Y-32.265
N2595 G01 X30.507 Y-32.267
N2596 G01 X31.115 Y-32.875
N2597 G01 X31.122 Y-32.882
N2598 G01 X31.127 Y-32.888
N2599 G01 X31.137 Y-32.902
N2600 G01 X31.145 Y-32.915
N2601 G01 X31.152 Y-32.925
N2602 G01 X31.155 Y-32.93
N2603 G01 X31.157 Y-32.934
N2604 G01 X31.162 Y-32.944
N2605 G01 X31.165 Y-32.954
N2606 G01 X31.168 Y-32.964
N2607 G01 X31.17 Y-32.974
N2608 G01 X31.174 Y-32.994
N2609 G01 X31.176 Y-33.005
N2610 G01 Y-33.015
N2611 G01 X31.177 Y-33.021
N2612 G01 X31.176 Y-33.027
N2613 G01 Y-33.034
N2614 G01 X31.175 Y-33.044
N2615 G01 X31.172 Y-33.054
N2616 G01 X31.168 Y-33.074
N2617 G01 X31.166 Y-33.084
N2618 G01 X31.163 Y-33.094
N2619 G01 X31.159 Y-33.104
N2620 G01 X31.156 Y-33.109
N2621 G01 X31.153 Y-33.114
N2622 G01 X31.137 Y-33.139
N2623 G01 X31.126 Y-33.153
N2624 G01 X31.121 Y-33.159
N2625 G01 X31.115 Y-33.165
N2626 G01 X30.508 Y-33.772
N2627 G01 X30.506 Y-33.776
N2628 G01 Y-34.8
N2629 G01 Y-34.825
N2630 G01 X30.505 Y-34.834
N2631 G01 X30.504 Y-34.844
N2632 G01 X30.5 Y-34.864
N2633 G01 X30.495 Y-34.884
N2634 G01 X30.492 Y-34.894
N2635 G01 X30.488 Y-34.904
N2636 G01 X30.486 Y-34.909
N2637 G01 X30.483 Y-34.914
N2638 G01 X30.477 Y-34.924
N2639 G01 X30.46 Y-34.949
N2640 G01 X30.456 Y-34.954
N2641 G01 X30.452 Y-34.959
N2642 G01 X30.447 Y-34.964
N2643 G01 X30.441 Y-34.97
N2644 G01 X30.437 Y-34.974
N2645 G01 X30.432 Y-34.977
N2646 G01 X30.423 Y-34.984
N2647 G01 X30.4 Y-34.998
N2648 G01 X30.39 Y-35.004
N2649 G01 X30.38 Y-35.009
N2650 G01 X30.37 Y-35.013
N2651 G01 X30.36 Y-35.015
N2652 G01 X30.341 Y-35.019
N2653 G01 X30.326 Y-35.022
N2654 G01 X30.318 Y-35.023
N2655 G01 X30.311 Y-35.024
N2656 G01 X30.301
N2657 G01 X30.292
N2658 G01 X30.284 Y-35.023
N2659 G01 X30.276 Y-35.021
N2660 G01 X30.261 Y-35.018
N2661 G01 X30.241 Y-35.013
N2662 G01 X30.231 Y-35.01
N2663 G01 X30.221 Y-35.006
N2664 G01 X30.212 Y-35.002
N2665 G01 X30.203 Y-34.996
N2666 G01 X30.185 Y-34.984
N2667 G01 X30.181 Y-34.981
N2668 G01 X30.172 Y-34.974
N2669 G01 X30.167 Y-34.971
N2670 G01 X30.162 Y-34.966
N2671 G01 X30.14 Y-34.944
N2672 G01 X23.633 Y-28.437
N2673 G00 Z-2.
N2674 G00 X128.565 Y-31.878
N2675 G00 Z-1.
N2676 G01 Z-0.01 F100
N2677 G01 X128.661 F200
N2678 G01 X128.701 Y-31.879
N2679 G01 X128.711 Y-31.88
N2680 G01 X128.719 Y-31.881
N2681 G01 X128.726 Y-31.883
N2682 G01 X128.734 Y-31.886
N2683 G01 X128.741 Y-31.889
N2684 G01 X128.746 Y-31.891
N2685 G01 X128.751 Y-31.894
N2686 G01 X128.756 Y-31.897
N2687 G01 X128.761 Y-31.9
N2688 G01 X128.769 Y-31.906
N2689 G01 X128.775 Y-31.911
N2690 G01 X128.781 Y-31.916
N2691 G01 X129.341 Y-32.477 Z-0.008
N2692 G01 X129.378 Y-32.514
N2693 G01 X129.381 Y-32.517
N2694 G01 X129.387 Y-32.524
N2695 G01 X129.391 Y-32.53
N2696 G01 X129.395 Y-32.537
N2697 G01 X129.398 Y-32.542
N2698 G01 X129.4 Y-32.547
N2699 G01 X129.404 Y-32.556
N2700 G01 X129.407 Y-32.566
N2701 G01 X129.41 Y-32.576
N2702 G01 X129.411 Y-32.586
N2703 G01 X129.412 Y-32.596
N2704 G01 Y-32.636
N2705 G01 Y-33.432 Z-0.007
N2706 G01 X129.411 Y-33.452
N2707 G01 X129.41 Y-33.462
N2708 G01 X129.408 Y-33.472
N2709 G01 X129.405 Y-33.482
N2710 G01 X129.401 Y-33.492
N2711 G01 X129.399 Y-33.497
N2712 G01 X129.396 Y-33.502
N2713 G01 X129.393 Y-33.506
N2714 G01 X129.39 Y-33.511
N2715 G01 X129.384 Y-33.519
N2716 G01 X129.378 Y-33.526
N2717 G01 X129.353 Y-33.551
N2718 G01 X128.781 Y-34.124 Z-0.006
N2719 G01 X128.773 Y-34.131
N2720 G01 X128.764 Y-34.138
N2721 G01 X128.756 Y-34.144
N2722 G01 X128.748 Y-34.148 Z-0.005
N2723 G01 X128.746 Y-34.149
N2724 G01 X128.741 Y-34.151
N2725 G01 X128.731 Y-34.155
N2726 G01 X128.721 Y-34.158
N2727 G01 X128.711 Y-34.16
N2728 G01 X128.701 Y-34.161
N2729 G01 X128.661 Y-34.162
N2730 G01 X127.865 Z-0.004
N2731 G01 X127.845
N2732 G01 X127.836 Y-34.161
N2733 G01 X127.826 Y-34.159
N2734 G01 X127.816 Y-34.157
N2735 G01 X127.806 Y-34.154
N2736 G01 X127.797 Y-34.15
N2737 G01 X127.792 Y-34.148
N2738 G01 X127.786 Y-34.145
N2739 G01 X127.781 Y-34.142
N2740 G01 X127.776 Y-34.138
N2741 G01 X127.771 Y-34.135
N2742 G01 X127.766 Y-34.131
N2743 G01 X127.746 Y-34.111
N2744 G01 X127.166 Y-33.531 Z-0.003
N2745 G01 X127.161 Y-33.526
N2746 G01 X127.157 Y-33.521
N2747 G01 X127.153 Y-33.516
N2748 G01 X127.15 Y-33.511
N2749 G01 X127.149 Y-33.51
N2750 G01 X127.145 Y-33.503
N2751 G01 X127.143 Y-33.501
N2752 G01 X127.142 Y-33.499
N2753 G01 X127.14 Y-33.494
N2754 G01 X127.138 Y-33.489
N2755 G01 X127.136 Y-33.483
N2756 G01 X127.134 Y-33.479
N2757 G01 X127.132 Y-33.472
N2758 G01 X127.13 Y-33.462
N2759 G01 X127.129 Y-33.452
N2760 G01 X127.128 Y-33.432
N2761 G01 Y-33.4 Z-0.002
N2762 G01 X127.127 Y-33.397
N2763 G01 X124.778 Y-31.048 Z0.003
N2764 G01 X124.775 Y-31.049
N2765 G01 X107.126 Y-48.698 Z0.04
N2766 G01 X107.119 Y-48.706
N2767 G01 X107.112 Y-48.712
N2768 G01 X107.087 Y-48.731
N2769 G01 X107.007 Y-48.792
N2770 G01 X106.999 Y-48.798
N2771 G01 X106.991 Y-48.803
N2772 G01 X106.986 Y-48.805
N2773 G01 X106.979 Y-48.809 Z0.041
N2774 G01 X106.888 Y-48.847
N2775 G01 X106.848 Y-48.863
N2776 G01 X106.838 Y-48.865
N2777 G01 X106.828 Y-48.867
N2778 G01 X106.808 Y-48.87
N2779 G01 X106.728 Y-48.88
N2780 G01 X106.689 Y-48.885
N2781 G01 X106.649 Y-48.886
N2782 G01 X46.362 Z0.132
N2783 G01 X46.353
N2784 G01 X46.343 Y-48.885
N2785 G01 X46.303 Y-48.88
N2786 G01 X46.223 Y-48.869
N2787 G01 X46.203 Y-48.867
N2788 G01 X46.193 Y-48.864
N2789 G01 X46.183 Y-48.861
N2790 G01 X46.144 Y-48.845
N2791 G01 X46.064 Y-48.812 Z0.133
N2792 G01 X46.055 Y-48.808
N2793 G01 X46.048 Y-48.805
N2794 G01 X46.043 Y-48.802
N2795 G01 X46.035 Y-48.797
N2796 G01 X46.027 Y-48.791
N2797 G01 X45.945 Y-48.728
N2798 G01 X45.923 Y-48.712
N2799 G01 X45.919 Y-48.708
N2800 G01 X45.914 Y-48.704
N2801 G01 X45.905 Y-48.695
N2802 G01 X40.212 Y-43.002 Z0.145
N2803 G01 X40.192 Y-42.982
N2804 G01 X40.173 Y-42.957
N2805 G01 X40.131 Y-42.902
N2806 G01 X40.101 Y-42.863
N2807 G01 X40.097 Y-42.855
N2808 G01 X40.093 Y-42.848
N2809 G01 X40.082 Y-42.823
N2810 G01 X40.042 Y-42.725
N2811 G01 X40.037 Y-42.712 Z0.146
N2812 G01 X40.035 Y-42.703
N2813 G01 X40.033 Y-42.693
N2814 G01 X40.031 Y-42.683
N2815 G01 X40.016 Y-42.564
N2816 G01 X40.015 Y-42.554
N2817 G01 X40.014 Y-42.544
N2818 G01 Y-39.361 Z0.151
N2819 G01 X40.013 Y-39.36
N2820 G01 X39.974 Y-39.361
N2821 G01 X38.909 Z0.152
N2822 G01 X38.907
N2823 G01 X38.779 Y-39.489 Z0.153
N2824 G01 X38.769 Y-39.499
N2825 G01 X38.765 Y-39.503
N2826 G01 X38.76 Y-39.507
N2827 G01 X38.755 Y-39.51
N2828 G01 X38.75 Y-39.514
N2829 G01 X38.745 Y-39.516
N2830 G01 X38.74 Y-39.519
N2831 G01 X38.738 Y-39.52
N2832 G01 X38.728 Y-39.524
N2833 G01 X38.719 Y-39.527
N2834 G01 X38.709 Y-39.529
N2835 G01 X38.7 Y-39.531
N2836 G01 X38.69 Y-39.532
N2837 G01 X38.68
N2838 G01 X37.864 Z0.154
N2839 G01 X37.854
N2840 G01 X37.844 Y-39.531
N2841 G01 X37.834 Y-39.53
N2842 G01 X37.824 Y-39.528
N2843 G01 X37.819 Y-39.526
N2844 G01 X37.813 Y-39.524
N2845 G01 X37.808 Y-39.522
N2846 G01 X37.802 Y-39.52
N2847 G01 X37.793 Y-39.515
N2848 G01 X37.784 Y-39.51
N2849 G01 X37.776 Y-39.503
N2850 G01 X37.768 Y-39.496
N2851 G01 X37.744 Y-39.473
N2852 G01 X37.187 Y-38.915 Z0.155
N2853 G01 X37.178 Y-38.906
N2854 G01 X37.173 Y-38.9
N2855 G01 X37.17 Y-38.897
N2856 G01 X37.165 Y-38.89
N2857 G01 X37.161 Y-38.883
N2858 G01 X37.157 Y-38.874
N2859 G01 X37.153 Y-38.866
N2860 G01 X37.15 Y-38.857
N2861 G01 X37.147 Y-38.848
N2862 G01 X37.146 Y-38.844
N2863 G01 X37.145 Y-38.834
N2864 G01 X37.144 Y-38.824
N2865 G01 Y-38.804 Z0.156
N2866 G01 Y-38.008 Z0.157
N2867 G01 Y-37.988
N2868 G01 X37.145 Y-37.978
N2869 G01 X37.147 Y-37.968
N2870 G01 Y-37.964
N2871 G01 X37.15 Y-37.955
N2872 G01 X37.153 Y-37.946
N2873 G01 X37.157 Y-37.937
N2874 G01 X37.162 Y-37.928
N2875 G01 X37.166 Y-37.922
N2876 G01 X37.17 Y-37.916
N2877 G01 X37.173 Y-37.912
N2878 G01 X37.178 Y-37.906
N2879 G01 X37.187 Y-37.897
N2880 G01 X37.753 Y-37.331 Z0.158
N2881 G01 X37.771 Y-37.313
N2882 G01 X37.778 Y-37.308
N2883 G01 X37.784 Y-37.303
N2884 G01 X37.789 Y-37.3
N2885 G01 X37.794 Y-37.297
N2886 G01 X37.799 Y-37.294
N2887 G01 X37.804 Y-37.292
N2888 G01 X37.814 Y-37.288
N2889 G01 X37.824 Y-37.285
N2890 G01 X37.834 Y-37.282
N2891 G01 X37.844 Y-37.281
N2892 G01 X37.854
N2893 G01 X37.864
N2894 G01 X38.68 Z0.16
N2895 G01 X38.69
N2896 G01 X38.7 Y-37.282
N2897 G01 X38.709 Y-37.283
N2898 G01 X38.718 Y-37.285
N2899 G01 X38.727 Y-37.288
N2900 G01 X38.736 Y-37.292
N2901 G01 X38.74 Y-37.293
N2902 G01 X38.745 Y-37.296
N2903 G01 X38.75 Y-37.299
N2904 G01 X38.755 Y-37.302
N2905 G01 X38.76 Y-37.306
N2906 G01 X38.764 Y-37.309
N2907 G01 X38.769 Y-37.314
N2908 G01 X38.779 Y-37.324
N2909 G01 X39.344 Y-37.889 Z0.161
N2910 G01 X39.363 Y-37.907
N2911 G01 X39.367 Y-37.912
N2912 G01 X39.37 Y-37.916
N2913 G01 X39.374 Y-37.921
N2914 G01 X39.377 Y-37.925
N2915 G01 X39.378 Y-37.928
N2916 G01 X39.381 Y-37.933
N2917 G01 X39.384 Y-37.939
N2918 G01 X39.388 Y-37.948
N2919 G01 X39.391 Y-37.958
N2920 G01 X39.393 Y-37.968
N2921 G01 X39.395 Y-37.978
N2922 G01 X39.396 Y-37.988
N2923 G01 Y-38.008
N2924 G01 Y-38.108
N2925 G01 X39.397 Y-38.109
N2926 G01 X39.745 Z0.162
N2927 G01 X39.747 Y-38.108
N2928 G01 X40.013 Y-37.842
N2929 G01 X40.014 Y-37.84
N2930 G01 Y-35.186 Z0.166
N2931 G01 X40.013 Y-35.183
N2932 G01 X39.113 Y-34.283 Z0.168
N2933 G01 X39.11 Y-34.281
N2934 G01 X34.321 Z0.176
N2935 G01 X34.281 Y-34.28
N2936 G01 X34.242 Y-34.275
N2937 G01 X34.162 Y-34.265
N2938 G01 X34.142 Y-34.262
N2939 G01 X34.132 Y-34.26
N2940 G01 X34.122 Y-34.258
N2941 G01 X34.082 Y-34.242
N2942 G01 X33.993 Y-34.205
N2943 G01 X33.987 Y-34.202
N2944 G01 X33.981 Y-34.199
N2945 G01 X33.972 Y-34.194
N2946 G01 X33.964 Y-34.188
N2947 G01 X33.86 Y-34.108
N2948 G01 X33.852 Y-34.101
N2949 G01 X33.843 Y-34.093
N2950 G01 X33.655 Y-33.905 Z0.177
N2951 G01 X32.976 Y-34.584 Z0.178
N2952 G01 Y-34.586
N2953 G01 Y-34.745
N2954 G01 X32.975 Y-34.755
N2955 G01 X32.974 Y-34.765
N2956 G01 X32.972 Y-34.775
N2957 G01 X32.969 Y-34.785 Z0.179
N2958 G01 X32.968 Y-34.79
N2959 G01 X32.964 Y-34.798
N2960 G01 X32.96 Y-34.807
N2961 G01 X32.954 Y-34.816
N2962 G01 X32.948 Y-34.825
N2963 G01 X32.943 Y-34.83
N2964 G01 X32.937 Y-34.836
N2965 G01 X32.312 Y-35.461 Z0.18
N2966 G01 X32.291 Y-35.482
N2967 G01 X32.284 Y-35.488
N2968 G01 X32.278 Y-35.493
N2969 G01 X32.271 Y-35.497
N2970 G01 X32.264 Y-35.501
N2971 G01 X32.258 Y-35.504
N2972 G01 X32.251 Y-35.507
N2973 G01 X32.241 Y-35.511
N2974 G01 X32.231 Y-35.513
N2975 G01 X32.221 Y-35.515
N2976 G01 X32.211 Y-35.516
N2977 G01 X32.172
N2978 G01 X31.296 Z0.181
N2979 G01 X31.286 Y-35.515 Z0.182
N2980 G01 X31.276 Y-35.514
N2981 G01 X31.266 Y-35.512
N2982 G01 X31.256 Y-35.51
N2983 G01 X31.246 Y-35.506
N2984 G01 X31.241 Y-35.504
N2985 G01 X31.236 Y-35.501
N2986 G01 X31.231 Y-35.498
N2987 G01 X31.226 Y-35.495
N2988 G01 X31.221 Y-35.492
N2989 G01 X31.216 Y-35.488
N2990 G01 X31.209 Y-35.482
N2991 G01 X31.202 Y-35.475
N2992 G01 X30.565 Y-34.839 Z0.183
N2993 G01 X30.558 Y-34.832
N2994 G01 X30.552 Y-34.825
N2995 G01 X30.549 Y-34.82
N2996 G01 X30.545 Y-34.815
N2997 G01 X30.54 Y-34.806
N2998 G01 X30.537 Y-34.8
N2999 G01 X30.535 Y-34.795
N3000 G01 X30.532 Y-34.79
N3001 G01 X30.531 Y-34.785
N3002 G01 X30.528 Y-34.775
N3003 G01 X30.526 Y-34.765
N3004 G01 X30.525 Y-34.755
N3005 G01 X30.524 Y-34.745
N3006 G01 Y-33.87 Z0.184
N3007 G01 Y-33.83 Z0.185
N3008 G01 X30.525 Y-33.82
N3009 G01 X30.527 Y-33.81
N3010 G01 X30.529 Y-33.8
N3011 G01 X30.532 Y-33.79
N3012 G01 X30.535 Y-33.785
N3013 G01 X30.537 Y-33.779
N3014 G01 X30.539 Y-33.776
N3015 G01 X30.54 Y-33.774
N3016 G01 X30.543 Y-33.768
N3017 G01 X30.547 Y-33.762
N3018 G01 X30.552 Y-33.756
N3019 G01 X30.557 Y-33.75
N3020 G01 X30.579 Y-33.727
N3021 G01 X31.205 Y-33.102 Z0.186
N3022 G01 X31.21 Y-33.096
N3023 G01 X31.216 Y-33.092
N3024 G01 X31.224 Y-33.086
N3025 G01 X31.231 Y-33.081
N3026 G01 X31.239 Y-33.077
N3027 G01 X31.247 Y-33.074
N3028 G01 X31.256 Y-33.07
N3029 G01 X31.266 Y-33.068
N3030 G01 X31.276 Y-33.066
N3031 G01 X31.286 Y-33.065
N3032 G01 X31.296 Y-33.064
N3033 G01 X32.172 Z0.188
N3034 G01 X32.211
N3035 G01 X32.221 Y-33.065
N3036 G01 X32.231 Y-33.067
N3037 G01 X32.241 Y-33.069
N3038 G01 X32.251 Y-33.073
N3039 G01 X32.253 Y-33.074
N3040 G01 X32.263 Y-33.078
N3041 G01 X32.272 Y-33.083
N3042 G01 X32.277 Y-33.087
N3043 G01 X32.282 Y-33.09
N3044 G01 X32.286 Y-33.094
N3045 G01 X32.291 Y-33.098
N3046 G01 X32.307 Y-33.114
N3047 G01 X32.49 Y-33.297
N3048 G01 X32.492 Y-33.298
N3049 G01 X32.77 Y-33.02 Z0.189
N3050 G01 X32.684 Y-32.934
N3051 G01 X32.682
N3052 G01 X32.679 Y-32.936
N3053 G01 X32.669 Y-32.942
N3054 G01 X32.664 Y-32.945
N3055 G01 X32.659 Y-32.947
N3056 G01 X32.649 Y-32.952
N3057 G01 X32.642 Y-32.954
N3058 G01 X32.57 Y-32.98
N3059 G01 X32.53 Y-32.994
N3060 G01 X32.528
N3061 G01 X32.518 Y-32.996
N3062 G01 X32.509 Y-32.997
N3063 G01 X32.41 Y-33.009
N3064 G01 X32.391 Y-33.011
N3065 G01 X32.371
N3066 G01 X31.774 Z0.19
N3067 G01 X31.734 Y-33.01
N3068 G01 X31.694 Y-33.007
N3069 G01 X31.674 Y-33.006
N3070 G01 X31.654 Y-33.002 Z0.191
N3071 G01 X31.612 Y-32.994
N3072 G01 X31.593 Y-32.99
N3073 G01 X31.575 Y-32.984
N3074 G01 X31.55 Y-32.976
N3075 G01 X31.547
N3076 G01 X31.296
N3077 G01 X31.286 Y-32.975
N3078 G01 X31.276 Y-32.974
N3079 G01 X31.266 Y-32.972
N3080 G01 X31.256 Y-32.97
N3081 G01 X31.248 Y-32.967
N3082 G01 X31.24 Y-32.963
N3083 G01 X31.232 Y-32.959
N3084 G01 X31.224 Y-32.954
N3085 G01 X31.216 Y-32.948
N3086 G01 X31.212 Y-32.945
N3087 G01 X31.208 Y-32.941
N3088 G01 X31.199 Y-32.932
N3089 G01 X30.579 Y-32.313 Z0.193
N3090 G01 X30.56 Y-32.293
N3091 G01 X30.553 Y-32.285
N3092 G01 X30.547 Y-32.278
N3093 G01 X30.543 Y-32.272
N3094 G01 X30.54 Y-32.266
N3095 G01 X30.539 Y-32.265
N3096 G01 X30.538 Y-32.263
N3097 G01 X30.535 Y-32.257
N3098 G01 X30.532 Y-32.247
N3099 G01 X30.529 Y-32.238
N3100 G01 X30.526 Y-32.228
N3101 G01 X30.525 Y-32.218
N3102 G01 X30.524 Y-32.208
N3103 G01 Y-32.198
N3104 G01 Y-32.047
N3105 G01 Y-32.044
N3106 G01 X28.132 Y-29.652 Z0.198
N3107 G01 X28.126 Y-29.645
N3108 G01 X28.121 Y-29.639
N3109 G01 X28.07 Y-29.572
N3110 G01 X28.039 Y-29.532
N3111 G01 X28.035 Y-29.526
N3112 G01 X28.032 Y-29.52
N3113 G01 X28.028 Y-29.513
N3114 G01 X28.025 Y-29.506
N3115 G01 X27.98 Y-29.397 Z0.199
N3116 G01 X27.975 Y-29.385
N3117 G01 X27.973 Y-29.379
N3118 G01 X27.971 Y-29.373
N3119 G01 X27.969 Y-29.363
N3120 G01 X27.967 Y-29.353
N3121 G01 X27.95 Y-29.227
N3122 G01 Y-29.22
N3123 G01 X27.949 Y-29.214
N3124 G01 Y-29.174
N3125 G01 Y-28.437 Z0.2
N3126 G01 Y-23.121 F100
N3127 G01 Y-23.118
N3128 G01 X17.588 Y-12.758
N3129 G01 X17.585 Y-12.756
N3130 G01 X17.045
N3131 G01 X17.006
N3132 G01 X16.996 Y-12.755
N3133 G01 X16.986 Y-12.754
N3134 G01 X16.976 Y-12.752
N3135 G01 X16.966 Y-12.749
N3136 G01 X16.96 Y-12.746
N3137 G01 X16.953 Y-12.744
N3138 G01 X16.948 Y-12.741
N3139 G01 X16.946 Y-12.74
N3140 G01 X16.941 Y-12.737
N3141 G01 X16.936 Y-12.734
N3142 G01 X16.931 Y-12.73
N3143 G01 X16.926 Y-12.726
N3144 G01 X16.899 Y-12.7
N3145 G01 X16.223 Y-12.024
N3146 G01 X16.209 Y-12.01
N3147 G01 X16.204 Y-12.004
N3148 G01 X16.199 Y-11.997
N3149 G01 X16.195 Y-11.991
N3150 G01 X16.192 Y-11.984
N3151 G01 X16.187 Y-11.974
N3152 G01 X16.184 Y-11.964
N3153 G01 X16.181 Y-11.954
N3154 G01 X16.179 Y-11.944
N3155 G01 X16.178 Y-11.934
N3156 G01 Y-11.924
N3157 G01 Y-10.95
N3158 G01 Y-10.93
N3159 G01 X16.179 Y-10.92
N3160 G01 X16.18 Y-10.91
N3161 G01 X16.183 Y-10.9
N3162 G01 X16.186 Y-10.89
N3163 G01 X16.19 Y-10.88
N3164 G01 X16.192 Y-10.875
N3165 G01 X16.195 Y-10.87
N3166 G01 X16.198 Y-10.865
N3167 G01 X16.201 Y-10.86
N3168 G01 X16.205 Y-10.855
N3169 G01 X16.209 Y-10.85
N3170 G01 X16.229 Y-10.83
N3171 G01 X16.905 Y-10.154
N3172 G01 X16.926 Y-10.134
N3173 G01 X16.934 Y-10.127
N3174 G01 X16.942 Y-10.122
N3175 G01 X16.95 Y-10.118
N3176 G01 X16.959 Y-10.114
N3177 G01 X16.966 Y-10.111
N3178 G01 X16.976 Y-10.108
N3179 G01 X16.986 Y-10.106
N3180 G01 X16.996 Y-10.105
N3181 G01 X17.006 Y-10.104
N3182 G01 X17.244
N3183 G01 X18.001
N3184 G01 X18.011 Y-10.105
N3185 G01 X18.021 Y-10.106
N3186 G01 X18.031 Y-10.108
N3187 G01 X18.04 Y-10.111
N3188 G01 X18.049 Y-10.114
N3189 G01 X18.057 Y-10.118
N3190 G01 X18.065 Y-10.122
N3191 G01 X18.072 Y-10.127
N3192 G01 X18.08 Y-10.133
N3193 G01 X18.086 Y-10.138
N3194 G01 X18.093 Y-10.144
N3195 G01 X18.779 Y-10.83
N3196 G01 X18.797 Y-10.848
N3197 G01 X18.801 Y-10.853
N3198 G01 X18.804 Y-10.858
N3199 G01 X18.809 Y-10.864
N3200 G01 X18.813 Y-10.87
N3201 G01 X18.815 Y-10.875
N3202 G01 X18.818 Y-10.88
N3203 G01 X18.822 Y-10.89
N3204 G01 X18.825 Y-10.9
N3205 G01 X18.827 Y-10.91
N3206 G01 X18.829 Y-10.92
N3207 G01 Y-10.93
N3208 G01 Y-10.95
N3209 G01 Y-11.924
N3210 G01 Y-11.934
N3211 G01 X18.828 Y-11.944
N3212 G01 X18.826 Y-11.954
N3213 G01 X18.824 Y-11.964
N3214 G01 X18.82 Y-11.974
N3215 G01 X18.816 Y-11.984
N3216 G01 X18.812 Y-11.991
N3217 G01 X18.808 Y-11.998
N3218 G01 X18.803 Y-12.005
N3219 G01 X18.797 Y-12.012
N3220 G01 X18.785 Y-12.024
N3221 G01 X18.705 Y-12.104
N3222 G01 Y-12.105
N3223 G01 X29.009 Y-22.41
N3224 G01 X29.019 Y-22.419
N3225 G01 X29.023 Y-22.424
N3226 G01 X29.027 Y-22.428
N3227 G01 X29.043 Y-22.449
N3228 G01 X29.107 Y-22.532
N3229 G01 X29.113 Y-22.541
N3230 G01 X29.119 Y-22.55
N3231 G01 X29.123 Y-22.56
N3232 G01 X29.127 Y-22.569
N3233 G01 X29.16 Y-22.648
N3234 G01 X29.176 Y-22.688
N3235 G01 X29.179 Y-22.698
N3236 G01 X29.182 Y-22.708
N3237 G01 X29.184 Y-22.728
N3238 G01 X29.195 Y-22.807
N3239 G01 X29.2 Y-22.847
N3240 G01 X29.201 Y-22.857
N3241 G01 Y-22.867
N3242 G01 Y-28.95
N3243 G01 X29.203 Y-28.953
N3244 G01 X31.007 Y-30.757
N3245 G01 X31.01
N3246 G01 X31.2 Y-30.567
N3247 G01 X31.208 Y-30.559
N3248 G01 X31.216 Y-30.552
N3249 G01 X31.221 Y-30.548
N3250 G01 X31.226 Y-30.544
N3251 G01 X31.231 Y-30.541
N3252 G01 X31.236 Y-30.539
N3253 G01 X31.246 Y-30.534
N3254 G01 X31.256 Y-30.53
N3255 G01 X31.262 Y-30.529
N3256 G01 X31.268 Y-30.527
N3257 G01 X31.275 Y-30.526
N3258 G01 X31.282 Y-30.525
N3259 G01 X31.289 Y-30.524
N3260 G01 X31.296
N3261 G01 X32.172
N3262 G01 X32.211
N3263 G01 X32.222 Y-30.525
N3264 G01 X32.232 Y-30.527
N3265 G01 X32.242 Y-30.53
N3266 G01 X32.251 Y-30.533
N3267 G01 X32.261 Y-30.537
N3268 G01 X32.266 Y-30.54
N3269 G01 X32.271 Y-30.543
N3270 G01 X32.276 Y-30.546
N3271 G01 X32.281 Y-30.55
N3272 G01 X32.286 Y-30.553
N3273 G01 X32.291 Y-30.558
N3274 G01 X32.3 Y-30.567
N3275 G01 X32.937 Y-31.204
N3276 G01 X32.946 Y-31.213
N3277 G01 X32.95 Y-31.218
N3278 G01 X32.954 Y-31.223
N3279 G01 X32.957 Y-31.228
N3280 G01 X32.96 Y-31.233
N3281 G01 X32.963 Y-31.238
N3282 G01 X32.965 Y-31.243
N3283 G01 X32.968 Y-31.25
N3284 G01 X32.97 Y-31.259
N3285 G01 X32.973 Y-31.267
N3286 G01 X32.974 Y-31.275
N3287 G01 X32.975 Y-31.283
N3288 G01 X32.976 Y-31.293
N3289 G01 Y-31.323
N3290 G01 Y-31.455
N3291 G01 X32.977 Y-31.457
N3292 G01 X34.548 Y-33.028
N3293 G01 X34.55 Y-33.029
N3294 G01 X39.337
N3295 G01 X39.377
N3296 G01 X39.413 Y-33.034
N3297 G01 X39.516 Y-33.047
N3298 G01 X39.526 Y-33.049
N3299 G01 X39.536 Y-33.052
N3300 G01 X39.546 Y-33.055
N3301 G01 X39.556 Y-33.059
N3302 G01 X39.655 Y-33.101
N3303 G01 X39.669 Y-33.106
N3304 G01 X39.676 Y-33.11
N3305 G01 X39.684 Y-33.114
N3306 G01 X39.689 Y-33.117
N3307 G01 X39.695 Y-33.121
N3308 G01 X39.737 Y-33.153
N3309 G01 X39.789 Y-33.193
N3310 G01 X39.802 Y-33.203
N3311 G01 X39.808 Y-33.208
N3312 G01 X39.814 Y-33.215
N3313 G01 X41.066 Y-34.466
N3314 G01 X41.088 Y-34.489
N3315 G01 X41.102 Y-34.506
N3316 G01 X41.168 Y-34.592
N3317 G01 X41.174 Y-34.6
N3318 G01 X41.18 Y-34.609
N3319 G01 X41.185 Y-34.617
N3320 G01 X41.189 Y-34.626
N3321 G01 X41.222 Y-34.705
N3322 G01 X41.238 Y-34.745
N3323 G01 X41.241 Y-34.753
N3324 G01 X41.244 Y-34.762
N3325 G01 X41.246 Y-34.77
N3326 G01 X41.247 Y-34.778
N3327 G01 X41.264 Y-34.904
N3328 G01 X41.265 Y-34.914
N3329 G01 X41.266 Y-34.924
N3330 G01 Y-38.088
N3331 G01 X41.265 Y-38.107
N3332 G01 X41.263 Y-38.127
N3333 G01 X41.251 Y-38.229
N3334 G01 Y-38.232
N3335 G01 X41.25 Y-38.237
N3336 G01 X41.248 Y-38.247
N3337 G01 X41.247 Y-38.249
N3338 G01 X41.234 Y-38.286
N3339 G01 X41.208 Y-38.36
N3340 G01 X41.205 Y-38.366
N3341 G01 X41.201 Y-38.376
N3342 G01 X41.199 Y-38.381
N3343 G01 X41.196 Y-38.386
N3344 G01 X41.183 Y-38.406
N3345 G01 X41.177 Y-38.416
N3346 G01 X41.176 Y-38.418
N3347 G01 X41.194 Y-38.446
N3348 G01 X41.198 Y-38.453
N3349 G01 X41.202 Y-38.459
N3350 G01 X41.205 Y-38.466
N3351 G01 X41.208 Y-38.473
N3352 G01 X41.24 Y-38.565
N3353 G01 X41.247 Y-38.586
N3354 G01 X41.25 Y-38.595
N3355 G01 X41.252 Y-38.605
N3356 G01 Y-38.607
N3357 G01 X41.261 Y-38.684
N3358 G01 X41.265 Y-38.724
N3359 G01 X41.266 Y-38.764
N3360 G01 Y-42.286
N3361 G01 X41.268 Y-42.288
N3362 G01 X46.614 Y-47.634
N3363 G01 X46.616
N3364 G01 X106.42
N3365 G01 X106.422 Y-47.633
N3366 G01 X123.892 Y-30.164
N3367 G01 Y-30.162
N3368 G01 X115.946 Y-22.216
N3369 G01 X115.943
N3370 G01 X89.572
N3371 G01 X89.532
N3372 G01 X89.522 Y-22.215
N3373 G01 X89.512 Y-22.214
N3374 G01 X89.393 Y-22.198
N3375 G01 X89.383 Y-22.197
N3376 G01 X89.373 Y-22.194
N3377 G01 X89.365 Y-22.192
N3378 G01 X89.356 Y-22.189
N3379 G01 X89.237 Y-22.139
N3380 G01 X89.229 Y-22.135
N3381 G01 X89.221 Y-22.131
N3382 G01 X89.214 Y-22.126
N3383 G01 X89.174 Y-22.096
N3384 G01 X89.105 Y-22.043
N3385 G01 X89.1 Y-22.039
N3386 G01 X89.094 Y-22.034
N3387 G01 X89.072 Y-22.012
N3388 G01 X82.233 Y-15.173
N3389 G01 X82.23 Y-15.175
N3390 G01 X63.973 Y-33.432
N3391 G01 X63.937 Y-33.468
N3392 G01 X63.932 Y-33.472
N3393 G01 X63.897 Y-33.499
N3394 G01 X63.828 Y-33.551
N3395 G01 X63.823 Y-33.555
N3396 G01 X63.817 Y-33.559
N3397 G01 X63.809 Y-33.564
N3398 G01 X63.802 Y-33.567
N3399 G01 X63.796 Y-33.57
N3400 G01 X63.678 Y-33.619
N3401 G01 X63.668 Y-33.623
N3402 G01 X63.658 Y-33.625
N3403 G01 X63.649 Y-33.627
N3404 G01 X63.64 Y-33.628
N3405 G01 X63.519 Y-33.644
N3406 G01 X63.509 Y-33.645
N3407 G01 X63.499 Y-33.646
N3408 G01 X49.052
N3409 G01 X49.049 Y-33.647
N3410 G01 X48.811 Y-33.886
N3411 G01 X48.797 Y-33.899
N3412 G01 X48.79 Y-33.905
N3413 G01 X48.783 Y-33.909
N3414 G01 X48.777 Y-33.913
N3415 G01 X48.771 Y-33.916
N3416 G01 X48.761 Y-33.92
N3417 G01 X48.751 Y-33.924
N3418 G01 X48.741 Y-33.926
N3419 G01 X48.731 Y-33.928
N3420 G01 X48.721 Y-33.929
N3421 G01 X48.711
N3422 G01 X47.815
N3423 G01 X47.796 Y-33.928
N3424 G01 X47.786 Y-33.927
N3425 G01 X47.776 Y-33.925
N3426 G01 X47.766 Y-33.923
N3427 G01 X47.756 Y-33.919
N3428 G01 X47.747 Y-33.915
N3429 G01 X47.737 Y-33.909
N3430 G01 X47.736 Y-33.908
N3431 G01 X47.731 Y-33.905
N3432 G01 X47.726 Y-33.901
N3433 G01 X47.721 Y-33.897
N3434 G01 X47.716 Y-33.892
N3435 G01 X47.076 Y-33.253
N3436 G01 X47.067 Y-33.243
N3437 G01 X47.063 Y-33.238
N3438 G01 X47.059 Y-33.234
N3439 G01 Y-33.233
N3440 G01 X47.053 Y-33.225
N3441 G01 X47.05 Y-33.219
N3442 G01 X47.046 Y-33.213
N3443 G01 X47.042 Y-33.203
N3444 G01 X47.039 Y-33.193
N3445 G01 X47.037 Y-33.183
N3446 G01 X47.035 Y-33.173
N3447 G01 X47.034 Y-33.163
N3448 G01 Y-33.153
N3449 G01 Y-32.278
N3450 G01 X47.035 Y-32.238
N3451 G01 X47.036 Y-32.228
N3452 G01 X47.038 Y-32.218
N3453 G01 X47.041 Y-32.208
N3454 G01 X47.044 Y-32.198
N3455 G01 X47.047 Y-32.193
N3456 G01 X47.049 Y-32.188
N3457 G01 X47.054 Y-32.18
N3458 G01 X47.059 Y-32.173
N3459 G01 X47.065 Y-32.166
N3460 G01 X47.071 Y-32.159
N3461 G01 X47.708 Y-31.522
N3462 G01 X47.722 Y-31.508
N3463 G01 X47.729 Y-31.503
N3464 G01 X47.736 Y-31.498
N3465 G01 X47.744 Y-31.493
N3466 G01 X47.753 Y-31.488
N3467 G01 X47.762 Y-31.485
N3468 G01 X47.771 Y-31.482
N3469 G01 X47.776 Y-31.481
N3470 G01 X47.786 Y-31.479
N3471 G01 X47.796 Y-31.478
N3472 G01 X47.815 Y-31.477
N3473 G01 X48.711
N3474 G01 X48.721 Y-31.478
N3475 G01 X48.731
N3476 G01 X48.74 Y-31.48
N3477 G01 X48.749 Y-31.482
N3478 G01 X48.755 Y-31.484
N3479 G01 X48.76 Y-31.486
N3480 G01 X48.765 Y-31.488
N3481 G01 X48.771 Y-31.49
N3482 G01 X48.776 Y-31.493
N3483 G01 X48.781 Y-31.496
N3484 G01 X48.786 Y-31.499
N3485 G01 X48.791 Y-31.502
N3486 G01 X48.796 Y-31.506
N3487 G01 X48.801 Y-31.511
N3488 G01 X48.811 Y-31.52
N3489 G01 X49.449 Y-32.159
N3490 G01 X49.453 Y-32.163
N3491 G01 X49.457 Y-32.167
N3492 G01 X49.462 Y-32.174
N3493 G01 X49.466 Y-32.18
N3494 G01 X49.471 Y-32.189
N3495 G01 X49.476 Y-32.198
N3496 G01 X49.479 Y-32.208
N3497 G01 X49.482 Y-32.218
N3498 G01 X49.484 Y-32.228
N3499 G01 X49.485 Y-32.238
N3500 G01 X49.486 Y-32.278
N3501 G01 Y-32.392
N3502 G01 X49.487 Y-32.394
N3503 G01 X63.24
N3504 G01 X63.242
N3505 G01 X81.347 Y-14.288
N3506 G01 Y-14.287
N3507 G01 X80.987 Y-13.926
N3508 G01 X80.985
N3509 G01 X80.854
N3510 G01 X80.815 Y-13.925
N3511 G01 X80.805 Y-13.924
N3512 G01 X80.795 Y-13.922
N3513 G01 X80.785 Y-13.919
N3514 G01 X80.775 Y-13.915
N3515 G01 X80.768 Y-13.912
N3516 G01 X80.76 Y-13.908
N3517 G01 X80.756 Y-13.905
N3518 G01 X80.75 Y-13.901
N3519 G01 X80.746 Y-13.898
N3520 G01 X80.741 Y-13.894
N3521 G01 X80.735 Y-13.888
N3522 G01 X80.098 Y-13.251
N3523 G01 X80.09 Y-13.243
N3524 G01 X80.086 Y-13.239
N3525 G01 X80.082 Y-13.235
N3526 G01 X80.076 Y-13.226
N3527 G01 X80.071 Y-13.218
N3528 G01 X80.067 Y-13.21
N3529 G01 X80.063 Y-13.202
N3530 G01 X80.061 Y-13.195
N3531 G01 X80.058 Y-13.187
N3532 G01 X80.056 Y-13.178
N3533 G01 X80.055 Y-13.168
N3534 G01 X80.054 Y-13.158
N3535 G01 Y-13.138
N3536 G01 Y-12.263
N3537 G01 Y-12.243
N3538 G01 X80.055 Y-12.233
N3539 G01 X80.056 Y-12.223
N3540 G01 X80.058 Y-12.213
N3541 G01 X80.06 Y-12.206
N3542 G01 X80.063 Y-12.198
N3543 G01 X80.066 Y-12.191
N3544 G01 X80.07 Y-12.183
N3545 G01 X80.076 Y-12.174
N3546 G01 X80.082 Y-12.166
N3547 G01 X80.086 Y-12.162
N3548 G01 X80.089 Y-12.157
N3549 G01 X80.098 Y-12.149
N3550 G01 X80.287 Y-11.959
N3551 G01 Y-11.957
N3552 G01 X77.847 Y-9.517
N3553 G01 X77.845 Y-9.516
N3554 G01 X58.044
N3555 G01 X56.506 Y-11.054
N3556 G01 Y-11.057
N3557 G01 Y-12.064
N3558 G01 X56.505 Y-12.074
N3559 G01 X56.504 Y-12.084
N3560 G01 X56.489 Y-12.203
N3561 G01 X56.487 Y-12.213
N3562 G01 X56.485 Y-12.223
N3563 G01 X56.483 Y-12.233
N3564 G01 X56.479 Y-12.243
N3565 G01 X56.431 Y-12.358
N3566 G01 X56.426 Y-12.37
N3567 G01 X56.423 Y-12.376
N3568 G01 X56.419 Y-12.382
N3569 G01 X56.414 Y-12.39
N3570 G01 X56.334 Y-12.494
N3571 G01 X56.328 Y-12.501
N3572 G01 X56.294 Y-12.536
N3573 G01 X54.418 Y-14.411
N3574 G01 X54.414 Y-14.416
N3575 G01 X54.409 Y-14.42
N3576 G01 X54.399 Y-14.428
N3577 G01 X54.304 Y-14.501
N3578 G01 X54.294 Y-14.508
N3579 G01 X54.289 Y-14.511
N3580 G01 X54.284 Y-14.514
N3581 G01 X54.274 Y-14.519
N3582 G01 X54.184 Y-14.556
N3583 G01 X54.149 Y-14.571
N3584 G01 X54.145 Y-14.572
N3585 G01 X54.135 Y-14.575
N3586 G01 X54.125 Y-14.577
N3587 G01 X54.105 Y-14.58
N3588 G01 X54.025 Y-14.59
N3589 G01 X53.985 Y-14.595
N3590 G01 X53.946 Y-14.596
N3591 G01 X51.438
N3592 G01 X51.428 Y-14.595
N3593 G01 X51.418 Y-14.594
N3594 G01 X51.318 Y-14.581
N3595 G01 X51.279 Y-14.576
N3596 G01 X51.27 Y-14.573
N3597 G01 X51.261 Y-14.571
N3598 G01 X51.239 Y-14.561
N3599 G01 X51.139 Y-14.52
N3600 G01 X51.129 Y-14.516
N3601 G01 X51.124 Y-14.513
N3602 G01 X51.119 Y-14.51
N3603 G01 X51.114 Y-14.507
N3604 G01 X51.109 Y-14.503
N3605 G01 X51.04 Y-14.45
N3606 G01 X51. Y-14.419
N3607 G01 X50.992 Y-14.411
N3608 G01 X49.072 Y-12.492
N3609 G01 X48.85 Y-12.714
N3610 G01 X48.842 Y-12.722
N3611 G01 X48.834 Y-12.729
N3612 G01 X48.826 Y-12.735
N3613 G01 X48.817 Y-12.74
N3614 G01 X48.815 Y-12.741
N3615 G01 X48.811 Y-12.744
N3616 G01 X48.801 Y-12.748
N3617 G01 X48.791 Y-12.751
N3618 G01 X48.781 Y-12.753
N3619 G01 X48.771 Y-12.755
N3620 G01 X48.761 Y-12.756
N3621 G01 X48.751
N3622 G01 X47.776
N3623 G01 X47.756 Y-12.755
N3624 G01 X47.746 Y-12.754
N3625 G01 X47.736 Y-12.753
N3626 G01 X47.726 Y-12.75
N3627 G01 X47.716 Y-12.747
N3628 G01 X47.707 Y-12.742
N3629 G01 X47.704 Y-12.741
N3630 G01 X47.703 Y-12.74
N3631 G01 X47.696 Y-12.736
N3632 G01 X47.691 Y-12.733
N3633 G01 X47.687 Y-12.73
N3634 G01 X47.682 Y-12.726
N3635 G01 X47.678 Y-12.722
N3636 G01 X47.656 Y-12.7
N3637 G01 X46.979 Y-12.024
N3638 G01 X46.97 Y-12.015
N3639 G01 X46.964 Y-12.008
N3640 G01 X46.959 Y-12.002
N3641 G01 X46.956 Y-11.998
N3642 G01 X46.953 Y-11.993
N3643 G01 X46.948 Y-11.984
N3644 G01 X46.946 Y-11.979
N3645 G01 X46.943 Y-11.974
N3646 G01 X46.94 Y-11.963
N3647 G01 X46.937 Y-11.954
N3648 G01 X46.936 Y-11.944
N3649 G01 X46.935 Y-11.934
N3650 G01 X46.934 Y-11.924
N3651 G01 Y-10.95
N3652 G01 Y-10.93
N3653 G01 X46.935 Y-10.92
N3654 G01 X46.936 Y-10.91
N3655 G01 X46.938 Y-10.903
N3656 G01 X46.94 Y-10.897
N3657 G01 X46.942 Y-10.89
N3658 G01 X46.945 Y-10.883
N3659 G01 X46.948 Y-10.877
N3660 G01 X46.951 Y-10.87
N3661 G01 X46.956 Y-10.863
N3662 G01 X46.961 Y-10.855
N3663 G01 X46.965 Y-10.851
N3664 G01 X46.97 Y-10.845
N3665 G01 X47.144 Y-10.671
N3666 G01 X47.661 Y-10.154
N3667 G01 X47.681 Y-10.135
N3668 G01 X47.689 Y-10.129
N3669 G01 X47.696 Y-10.124
N3670 G01 X47.705 Y-10.118
N3671 G01 X47.715 Y-10.114
N3672 G01 X47.72 Y-10.112
N3673 G01 X47.728 Y-10.109
N3674 G01 X47.736 Y-10.107
N3675 G01 X47.746 Y-10.106
N3676 G01 X47.756 Y-10.105
N3677 G01 X47.776 Y-10.104
N3678 G01 X48.751
N3679 G01 X48.761
N3680 G01 X48.771 Y-10.105
N3681 G01 X48.779 Y-10.106
N3682 G01 X48.788 Y-10.108
N3683 G01 X48.797 Y-10.111
N3684 G01 X48.805 Y-10.114
N3685 G01 X48.811 Y-10.116
N3686 G01 X48.816 Y-10.119
N3687 G01 X48.821 Y-10.122
N3688 G01 X48.825 Y-10.125
N3689 G01 X48.83 Y-10.128
N3690 G01 X48.835 Y-10.132
N3691 G01 X48.84 Y-10.136
N3692 G01 X48.85 Y-10.146
N3693 G01 X49.535 Y-10.83
N3694 G01 X49.553 Y-10.849
N3695 G01 X49.557 Y-10.853
N3696 G01 X49.561 Y-10.858
N3697 G01 X49.564 Y-10.862
N3698 G01 X49.567 Y-10.867
N3699 G01 X49.569 Y-10.87
N3700 G01 X49.57 Y-10.872
N3701 G01 X49.571 Y-10.875
N3702 G01 X49.574 Y-10.88
N3703 G01 X49.578 Y-10.89
N3704 G01 X49.581 Y-10.9
N3705 G01 X49.584 Y-10.91
N3706 G01 X49.585 Y-10.92
N3707 G01 X49.586 Y-10.93
N3708 G01 Y-10.95
N3709 G01 Y-11.235
N3710 G01 X49.587 Y-11.237
N3711 G01 X51.692 Y-13.343
N3712 G01 X51.694 Y-13.344
N3713 G01 X53.715
N3714 G01 X53.717 Y-13.343
N3715 G01 X55.253 Y-11.808
N3716 G01 X55.254 Y-11.805
N3717 G01 Y-10.83
N3718 G01 Y-10.79
N3719 G01 X55.259 Y-10.751
N3720 G01 X55.268 Y-10.671
N3721 G01 X55.269 Y-10.661
N3722 G01 X55.271 Y-10.651
N3723 G01 X55.274 Y-10.641
N3724 G01 X55.278 Y-10.631
N3725 G01 X55.306 Y-10.552
N3726 G01 X55.313 Y-10.532
N3727 G01 X55.317 Y-10.522
N3728 G01 X55.32 Y-10.517
N3729 G01 X55.323 Y-10.512
N3730 G01 X55.329 Y-10.502
N3731 G01 X55.332 Y-10.497
N3732 G01 X55.33 Y-10.494
N3733 G01 X53.082 Y-8.247
N3734 G01 X53.08 Y-8.246
N3735 G01 X33.915
N3736 G01 X33.913 Y-8.247
N3737 G01 X31.544 Y-10.616
N3738 G01 Y-10.619
N3739 G01 X31.755 Y-10.83
N3740 G01 X31.774 Y-10.849
N3741 G01 X31.777 Y-10.854
N3742 G01 X31.781 Y-10.858
N3743 G01 X31.785 Y-10.865
N3744 G01 X31.789 Y-10.87
N3745 G01 X31.791 Y-10.875
N3746 G01 X31.794 Y-10.88
N3747 G01 X31.798 Y-10.89
N3748 G01 X31.801 Y-10.9
N3749 G01 X31.804 Y-10.91
N3750 G01 X31.805 Y-10.92
N3751 G01 X31.806 Y-10.93
N3752 G01 Y-10.95
N3753 G01 Y-11.924
N3754 G01 X31.805 Y-11.934
N3755 G01 X31.804 Y-11.944
N3756 G01 X31.803 Y-11.954
N3757 G01 X31.8 Y-11.964
N3758 G01 X31.796 Y-11.974
N3759 G01 X31.792 Y-11.984
N3760 G01 X31.789 Y-11.989
N3761 G01 X31.786 Y-11.994
N3762 G01 X31.78 Y-12.003
N3763 G01 X31.774 Y-12.011
N3764 G01 X31.761 Y-12.024
N3765 G01 X31.544 Y-12.24
N3766 G01 X31.543 Y-12.243
N3767 G01 X32.172 Y-12.872
N3768 G01 X32.199 Y-12.899
N3769 G01 X32.211 Y-12.916
N3770 G01 X32.283 Y-13.009
N3771 G01 X32.287 Y-13.014
N3772 G01 X32.29 Y-13.019
N3773 G01 X32.291 Y-13.021
N3774 G01 X32.296 Y-13.03
N3775 G01 X32.3 Y-13.04
N3776 G01 X32.349 Y-13.158
N3777 G01 X32.353 Y-13.168
N3778 G01 X32.356 Y-13.178
N3779 G01 X32.357 Y-13.188
N3780 G01 X32.361 Y-13.218
N3781 G01 X32.374 Y-13.317
N3782 G01 X32.375 Y-13.327
N3783 G01 X32.376 Y-13.337
N3784 G01 Y-15.615
N3785 G01 X32.377 Y-15.618
N3786 G01 X37.123 Y-20.363
N3787 G01 X37.125 Y-20.364
N3788 G01 X37.287
N3789 G01 X37.297 Y-20.365
N3790 G01 X37.307 Y-20.366
N3791 G01 X37.317 Y-20.368
N3792 G01 X37.327 Y-20.371
N3793 G01 X37.336 Y-20.375
N3794 G01 X37.341 Y-20.377
N3795 G01 X37.346 Y-20.38
N3796 G01 X37.347
N3797 G01 X37.352 Y-20.383
N3798 G01 X37.357 Y-20.386
N3799 G01 X37.362 Y-20.39
N3800 G01 X37.366 Y-20.394
N3801 G01 X37.386 Y-20.413
N3802 G01 X37.99 Y-21.017
N3803 G01 X38.023 Y-21.05
N3804 G01 X38.029 Y-21.057
N3805 G01 X38.032 Y-21.062
N3806 G01 X38.036 Y-21.067
N3807 G01 X38.039 Y-21.072
N3808 G01 X38.042 Y-21.077
N3809 G01 X38.046 Y-21.087
N3810 G01 X38.05 Y-21.096
N3811 G01 X38.053 Y-21.106
N3812 G01 X38.054 Y-21.116
N3813 G01 X38.055 Y-21.126
N3814 G01 X38.056 Y-21.136
N3815 G01 Y-22.012
N3816 G01 Y-22.051
N3817 G01 X38.055 Y-22.061
N3818 G01 X38.053 Y-22.071
N3819 G01 X38.051 Y-22.081
N3820 G01 X38.047 Y-22.091
N3821 G01 X38.043 Y-22.101
N3822 G01 X38.038 Y-22.111
N3823 G01 X38.034 Y-22.115
N3824 G01 X38.031 Y-22.12
N3825 G01 X38.027 Y-22.125
N3826 G01 X38.023 Y-22.13
N3827 G01 X38.022 Y-22.131
N3828 G01 X37.983 Y-22.171
N3829 G01 X37.376 Y-22.778
N3830 G01 X37.371 Y-22.782
N3831 G01 X37.366 Y-22.787
N3832 G01 X37.361 Y-22.79
N3833 G01 X37.356 Y-22.794
N3834 G01 X37.351 Y-22.797
N3835 G01 X37.346 Y-22.8
N3836 G01 X37.338 Y-22.804
N3837 G01 X37.33 Y-22.807
N3838 G01 X37.324 Y-22.81
N3839 G01 X37.318 Y-22.811
N3840 G01 X37.313 Y-22.813
N3841 G01 X37.307 Y-22.814
N3842 G01 X37.297 Y-22.815
N3843 G01 X37.287 Y-22.816
N3844 G01 X36.391
N3845 G01 X36.371
N3846 G01 X36.361 Y-22.815
N3847 G01 X36.351 Y-22.814
N3848 G01 X36.343 Y-22.812
N3849 G01 X36.336 Y-22.81
N3850 G01 X36.33 Y-22.807
N3851 G01 X36.321 Y-22.804
N3852 G01 X36.311 Y-22.799
N3853 G01 X36.303 Y-22.794
N3854 G01 X36.295 Y-22.787
N3855 G01 X36.29 Y-22.783
N3856 G01 X36.284 Y-22.777
N3857 G01 X35.675 Y-22.168
N3858 G01 X35.638 Y-22.131
N3859 G01 X35.635 Y-22.128
N3860 G01 X35.631 Y-22.123
N3861 G01 X35.628 Y-22.119
N3862 G01 X35.624 Y-22.112
N3863 G01 X35.621 Y-22.108
N3864 G01 X35.616 Y-22.099
N3865 G01 X35.613 Y-22.091
N3866 G01 X35.609 Y-22.081
N3867 G01 X35.607 Y-22.071
N3868 G01 X35.605 Y-22.061
